!!!COM: Heinrich Schütz
!!!OTL: Domine Deus, Deus virtutum
!!!system-decoration: ({(s1,s2)}s3,s4,s5,s6,s7{(s8,s9,s10)}s11,s12,s13,s14,s15,s16)
**kern	**kern	**kern	**kern	**kern	**kern	**kern	**kern	**kern	**kern	**kern	**kern	**kern	**kern	**kern	**kern	**kern	**kern	**kern	**kern	**kern	**kern	**kern	**kern	**kern	**kern	**kern	**kern	**kern	**kern	**kern	**kern	**kern	**kern	**kern	**kern	**kern	**kern	**kern	**kern	**kern	**kern	**kern	**kern	**kern	**kern	**kern	**kern	**text	**kern	**kern	**kern	**kern	**kern	**kern	**kern	**kern	**kern	**kern	**kern	**kern	**kern	**kern	**kern	**kern	**text	**kern	**kern	**kern	**kern	**kern	**kern	**kern	**kern	**kern	**kern	**kern	**kern	**kern	**kern	**kern	**kern	**text	**kern	**kern	**kern	**kern	**kern	**kern	**kern	**kern	**kern	**kern	**kern	**kern	**kern	**kern	**kern	**kern	**text	**kern	**kern	**kern	**kern	**kern	**kern	**kern	**kern	**kern	**kern	**kern	**kern	**kern	**kern	**kern	**kern	**text	**kern	**kern	**kern	**kern	**kern	**kern	**kern	**kern	**kern	**kern	**kern	**kern	**kern	**kern	**kern	**kern	**kern	**kern	**kern	**kern	**kern	**kern	**kern	**kern	**kern	**kern	**kern	**kern	**kern	**kern	**kern	**kern	**kern	**kern	**kern	**kern	**kern	**kern	**kern	**kern	**kern	**kern	**kern	**kern	**kern	**kern	**kern	**kern	**text	**kern	**kern	**kern	**kern	**kern	**kern	**kern	**kern	**kern	**kern	**kern	**kern	**kern	**kern	**kern	**kern	**text	**kern	**kern	**kern	**kern	**kern	**kern	**kern	**kern	**kern	**kern	**kern	**kern	**kern	**kern	**kern	**kern	**text	**kern	**kern	**kern	**kern	**kern	**kern	**kern	**kern	**kern	**kern	**kern	**kern	**kern	**kern	**kern	**kern	**text	**kern	**kern	**kern	**kern	**kern	**kern	**kern	**kern	**kern	**kern	**kern	**kern	**kern	**kern	**kern	**kern	**text	**kern	**kern	**kern	**kern	**kern	**kern	**kern	**kern	**kern	**kern	**kern	**kern	**kern	**kern	**kern	**kern	**kern	**kern	**kern	**kern	**kern	**kern	**kern	**kern	**kern	**kern	**kern	**kern	**kern	**kern	**kern	**kern
*part16	*part16	*part16	*part16	*part16	*part16	*part16	*part16	*part16	*part16	*part16	*part16	*part16	*part16	*part16	*part16	*part15	*part15	*part15	*part15	*part15	*part15	*part15	*part15	*part15	*part15	*part15	*part15	*part15	*part15	*part15	*part15	*part14	*part14	*part14	*part14	*part14	*part14	*part14	*part14	*part14	*part14	*part14	*part14	*part14	*part14	*part14	*part14	*part14	*part13	*part13	*part13	*part13	*part13	*part13	*part13	*part13	*part13	*part13	*part13	*part13	*part13	*part13	*part13	*part13	*part13	*part12	*part12	*part12	*part12	*part12	*part12	*part12	*part12	*part12	*part12	*part12	*part12	*part12	*part12	*part12	*part12	*part12	*part11	*part11	*part11	*part11	*part11	*part11	*part11	*part11	*part11	*part11	*part11	*part11	*part11	*part11	*part11	*part11	*part11	*part10	*part10	*part10	*part10	*part10	*part10	*part10	*part10	*part10	*part10	*part10	*part10	*part10	*part10	*part10	*part10	*part10	*part9	*part9	*part9	*part9	*part9	*part9	*part9	*part9	*part9	*part9	*part9	*part9	*part9	*part9	*part9	*part9	*part8	*part8	*part8	*part8	*part8	*part8	*part8	*part8	*part8	*part8	*part8	*part8	*part8	*part8	*part8	*part8	*part7	*part7	*part7	*part7	*part7	*part7	*part7	*part7	*part7	*part7	*part7	*part7	*part7	*part7	*part7	*part7	*part7	*part6	*part6	*part6	*part6	*part6	*part6	*part6	*part6	*part6	*part6	*part6	*part6	*part6	*part6	*part6	*part6	*part6	*part5	*part5	*part5	*part5	*part5	*part5	*part5	*part5	*part5	*part5	*part5	*part5	*part5	*part5	*part5	*part5	*part5	*part4	*part4	*part4	*part4	*part4	*part4	*part4	*part4	*part4	*part4	*part4	*part4	*part4	*part4	*part4	*part4	*part4	*part3	*part3	*part3	*part3	*part3	*part3	*part3	*part3	*part3	*part3	*part3	*part3	*part3	*part3	*part3	*part3	*part3	*part2	*part2	*part2	*part2	*part2	*part2	*part2	*part2	*part2	*part2	*part2	*part2	*part2	*part2	*part2	*part2	*part1	*part1	*part1	*part1	*part1	*part1	*part1	*part1	*part1	*part1	*part1	*part1	*part1	*part1	*part1	*part1
*staff256	*staff255	*staff254	*staff253	*staff252	*staff251	*staff250	*staff249	*staff248	*staff247	*staff246	*staff245	*staff244	*staff243	*staff242	*staff241	*staff240	*staff239	*staff238	*staff237	*staff236	*staff235	*staff234	*staff233	*staff232	*staff231	*staff230	*staff229	*staff228	*staff227	*staff226	*staff225	*staff224	*staff223	*staff222	*staff221	*staff220	*staff219	*staff218	*staff217	*staff216	*staff215	*staff214	*staff213	*staff212	*staff211	*staff210	*staff209	*staff209	*staff208	*staff207	*staff206	*staff205	*staff204	*staff203	*staff202	*staff201	*staff200	*staff199	*staff198	*staff197	*staff196	*staff195	*staff194	*staff193	*staff193	*staff192	*staff191	*staff190	*staff189	*staff188	*staff187	*staff186	*staff185	*staff184	*staff183	*staff182	*staff181	*staff180	*staff179	*staff178	*staff177	*staff177	*staff176	*staff175	*staff174	*staff173	*staff172	*staff171	*staff170	*staff169	*staff168	*staff167	*staff166	*staff165	*staff164	*staff163	*staff162	*staff161	*staff161	*staff160	*staff159	*staff158	*staff157	*staff156	*staff155	*staff154	*staff153	*staff152	*staff151	*staff150	*staff149	*staff148	*staff147	*staff146	*staff145	*staff145	*staff144	*staff143	*staff142	*staff141	*staff140	*staff139	*staff138	*staff137	*staff136	*staff135	*staff134	*staff133	*staff132	*staff131	*staff130	*staff129	*staff128	*staff127	*staff126	*staff125	*staff124	*staff123	*staff122	*staff121	*staff120	*staff119	*staff118	*staff117	*staff116	*staff115	*staff114	*staff113	*staff112	*staff111	*staff110	*staff109	*staff108	*staff107	*staff106	*staff105	*staff104	*staff103	*staff102	*staff101	*staff100	*staff99	*staff98	*staff97	*staff97	*staff96	*staff95	*staff94	*staff93	*staff92	*staff91	*staff90	*staff89	*staff88	*staff87	*staff86	*staff85	*staff84	*staff83	*staff82	*staff81	*staff81	*staff80	*staff79	*staff78	*staff77	*staff76	*staff75	*staff74	*staff73	*staff72	*staff71	*staff70	*staff69	*staff68	*staff67	*staff66	*staff65	*staff65	*staff64	*staff63	*staff62	*staff61	*staff60	*staff59	*staff58	*staff57	*staff56	*staff55	*staff54	*staff53	*staff52	*staff51	*staff50	*staff49	*staff49	*staff48	*staff47	*staff46	*staff45	*staff44	*staff43	*staff42	*staff41	*staff40	*staff39	*staff38	*staff37	*staff36	*staff35	*staff34	*staff33	*staff33	*staff32	*staff31	*staff30	*staff29	*staff28	*staff27	*staff26	*staff25	*staff24	*staff23	*staff22	*staff21	*staff20	*staff19	*staff18	*staff17	*staff16	*staff15	*staff14	*staff13	*staff12	*staff11	*staff10	*staff9	*staff8	*staff7	*staff6	*staff5	*staff4	*staff3	*staff2	*staff1
*I'bc	*	*	*	*	*	*	*	*	*	*	*	*	*	*	*	*I'Violone	*	*	*	*	*	*	*	*	*	*	*	*	*	*	*	*I'B.-Ch. 3	*	*	*	*	*	*	*	*	*	*	*	*	*	*	*	*	*I'T.-Ch. 3	*	*	*	*	*	*	*	*	*	*	*	*	*	*	*	*	*I'A.-Ch. 3	*	*	*	*	*	*	*	*	*	*	*	*	*	*	*	*	*I'C.- Ch. 3	*	*	*	*	*	*	*	*	*	*	*	*	*	*	*	*	*I'Trmob.-B	*	*	*	*	*	*	*	*	*	*	*	*	*	*	*	*	*I'Tromb.-T	*	*	*	*	*	*	*	*	*	*	*	*	*	*	*	*I'Tromb.-A.	*	*	*	*	*	*	*	*	*	*	*	*	*	*	*	*I'C 2 Ch. 2	*	*	*	*	*	*	*	*	*	*	*	*	*	*	*	*	*I'C 1 Ch. 2	*	*	*	*	*	*	*	*	*	*	*	*	*	*	*	*	*I'B. - Ch. 1	*	*	*	*	*	*	*	*	*	*	*	*	*	*	*	*	*I'T.- Ch. 1	*	*	*	*	*	*	*	*	*	*	*	*	*	*	*	*	*I'A.-Chor 1	*	*	*	*	*	*	*	*	*	*	*	*	*	*	*	*	*I'Vl 2	*	*	*	*	*	*	*	*	*	*	*	*	*	*	*	*I'Vl 1	*	*	*	*	*	*	*	*	*	*	*	*	*	*	*
*I"Basso Continuo	*	*	*	*	*	*	*	*	*	*	*	*	*	*	*	*I"Violone	*	*	*	*	*	*	*	*	*	*	*	*	*	*	*	*I"Bassus Chor 3	*	*	*	*	*	*	*	*	*	*	*	*	*	*	*	*	*I"Tenor Chor 3	*	*	*	*	*	*	*	*	*	*	*	*	*	*	*	*	*I"Altus Chor 3	*	*	*	*	*	*	*	*	*	*	*	*	*	*	*	*	*I"Cantus Chor 3	*	*	*	*	*	*	*	*	*	*	*	*	*	*	*	*	*I"Trombone Basso	*	*	*	*	*	*	*	*	*	*	*	*	*	*	*	*	*I"Trombone Tenor	*	*	*	*	*	*	*	*	*	*	*	*	*	*	*	*I"Trombone Alto	*	*	*	*	*	*	*	*	*	*	*	*	*	*	*	*I"Cantus 2 Chor 2	*	*	*	*	*	*	*	*	*	*	*	*	*	*	*	*	*I"Cantus 1 Chor 2	*	*	*	*	*	*	*	*	*	*	*	*	*	*	*	*	*I"Bassus Chor 1	*	*	*	*	*	*	*	*	*	*	*	*	*	*	*	*	*I"Tenor Chor 1	*	*	*	*	*	*	*	*	*	*	*	*	*	*	*	*	*I"Altus Chor 1	*	*	*	*	*	*	*	*	*	*	*	*	*	*	*	*	*I"Violine2	*	*	*	*	*	*	*	*	*	*	*	*	*	*	*	*I"Violine 1	*	*	*	*	*	*	*	*	*	*	*	*	*	*	*
*clefF4	*clefF4	*clefF4	*	*clefGv2	*	*clefG2	*	*clefG2	*	*clefF4	*	*clefGv2	*clefG2	*clefG2	*	*clefG2	*	*clefF4	*	*clefG2	*	*clefG2	*	*clefG2	*clefG2
*M4/4	*M4/4	*M4/4	*	*M4/4	*	*M4/4	*	*M4/4	*	*M4/4	*	*M4/4	*M4/4	*M4/4	*	*M4/4	*	*M4/4	*	*M4/4	*	*M4/4	*	*M4/4	*M4/4
[1D	[1D	1r	.	1r	.	1r	.	1r	.	1d	.	4.f#	1D	1r	.	8r	.	1r	.	1r	.	1r	.	1r	1r
.	.	.	.	.	.	.	.	.	.	.	.	.	.	.	.	8.a	Do-	.	.	.	.	.	.	.	.
.	.	.	.	.	.	.	.	.	.	.	.	.	.	.	.	16a	mi-	.	.	.	.	.	.	.	.
.	.	.	.	.	.	.	.	.	.	.	.	8e	.	.	.	8g	ne	.	.	.	.	.	.	.	.
.	.	.	.	.	.	.	.	.	.	.	.	2f	.	.	.	4a	De-	.	.	.	.	.	.	.	.
.	.	.	.	.	.	.	.	.	.	.	.	.	.	.	.	4a	us,	.	.	.	.	.	.	.	.
=2	=2	=2	=2	=2	=2	=2	=2	=2	=2	=2	=2	=2	=2	=2	=2	=2	=2	=2	=2	=2	=2	=2	=2	=2	=2
!	!	!	!	!	!	!	!	!	!	!	!	!	!	!	!	!	!	!	!	!	!	!	!	!	!LO:TX:a:i:t=Domine Deus, Deus virtutum
2D	2D]]	1r	.	1r	.	1r	.	1r	.	2d	.	2f#	2D	1r	.	8r	.	1r	.	1r	.	1r	.	1r	1r
.	.	.	.	.	.	.	.	.	.	.	.	.	.	.	.	8a	De-	.	.	.	.	.	.	.	.
.	.	.	.	.	.	.	.	.	.	.	.	.	.	.	.	8a	us	.	.	.	.	.	.	.	.
.	.	.	.	.	.	.	.	.	.	.	.	.	.	.	.	8g	vir-	.	.	.	.	.	.	.	.
2GG	2GG	.	.	.	.	.	.	.	.	2d	.	2g	2GG	.	.	4b	tu-	.	.	.	.	.	.	.	.
.	.	.	.	.	.	.	.	.	.	.	.	.	.	.	.	4b	tum.	.	.	.	.	.	.	.	.
=3	=3	=3	=3	=3	=3	=3	=3	=3	=3	=3	=3	=3	=3	=3	=3	=3	=3	=3	=3	=3	=3	=3	=3	=3	=3
[1E	[1EE	1r	.	1r	.	1r	.	1r	.	1e	.	4.g#	1EE	1r	.	8r	.	1r	.	1r	.	1r	.	1r	1r
.	.	.	.	.	.	.	.	.	.	.	.	.	.	.	.	8.b	Do-	.	.	.	.	.	.	.	.
.	.	.	.	.	.	.	.	.	.	.	.	.	.	.	.	16b	mi-	.	.	.	.	.	.	.	.
.	.	.	.	.	.	.	.	.	.	.	.	8f#	.	.	.	8a	ne	.	.	.	.	.	.	.	.
.	.	.	.	.	.	.	.	.	.	.	.	2g	.	.	.	4b	De-	.	.	.	.	.	.	.	.
.	.	.	.	.	.	.	.	.	.	.	.	.	.	.	.	4b	us,	.	.	.	.	.	.	.	.
!!LO:LB
=4	=4	=4	=4	=4	=4	=4	=4	=4	=4	=4	=4	=4	=4	=4	=4	=4	=4	=4	=4	=4	=4	=4	=4	=4	=4
2E]	2EE]	1r	.	1r	.	1r	.	1r	.	2e	.	2g#	2EE	1r	.	8r	.	1r	.	1r	.	1r	.	1r	1r
.	.	.	.	.	.	.	.	.	.	.	.	.	.	.	.	8b	De-	.	.	.	.	.	.	.	.
.	.	.	.	.	.	.	.	.	.	.	.	.	.	.	.	8b	us	.	.	.	.	.	.	.	.
.	.	.	.	.	.	.	.	.	.	.	.	.	.	.	.	8a	vir-	.	.	.	.	.	.	.	.
2AA	2AA	.	.	.	.	.	.	.	.	2e	.	2a	2AA	.	.	4cc	tu-	.	.	.	.	.	.	.	.
.	.	.	.	.	.	.	.	.	.	.	.	.	.	.	.	4cc	tum,	.	.	.	.	.	.	.	.
=5	=5	=5	=5	=5	=5	=5	=5	=5	=5	=5	=5	=5	=5	=5	=5	=5	=5	=5	=5	=5	=5	=5	=5	=5	=5
2A	2A	1r	.	1r	.	1r	.	1r	.	2e	.	2a	2A	1r	.	4r	.	1r	.	1r	.	1r	.	1r	1r
.	.	.	.	.	.	.	.	.	.	.	.	.	.	.	.	4cc	quis,	.	.	.	.	.	.	.	.
2F	2F	.	.	.	.	.	.	.	.	4f	.	2a	2F	.	.	8r	.	.	.	.	.	.	.	.	.
.	.	.	.	.	.	.	.	.	.	.	.	.	.	.	.	8cc	quis	.	.	.	.	.	.	.	.
.	.	.	.	.	.	.	.	.	.	4d	.	.	.	.	.	[4dd	si	.	.	.	.	.	.	.	.
=6	=6	=6	=6	=6	=6	=6	=6	=6	=6	=6	=6	=6	=6	=6	=6	=6	=6	=6	=6	=6	=6	=6	=6	=6	=6
4E	4E	1r	.	1r	.	1r	.	1r	.	2e	.	2g	4E	1r	.	8dd]	.	1r	.	1r	.	1r	.	1r	1r
.	.	.	.	.	.	.	.	.	.	.	.	.	.	.	.	8cc	mi-	.	.	.	.	.	.	.	.
4F	4F	.	.	.	.	.	.	.	.	.	.	.	4F	.	.	4cc	lis	.	.	.	.	.	.	.	.
2G	4G	.	.	.	.	.	.	.	.	2d	.	2g	4G	.	.	(>4.cc	ti	.	.	.	.	.	.	.	.
.	4GG	.	.	.	.	.	.	.	.	.	.	.	4GG	.	.	.	.	.	.	.	.	.	.	.	.
.	.	.	.	.	.	.	.	.	.	.	.	.	.	.	.	8b)	.	.	.	.	.	.	.	.	.
=7	=7	=7	=7	=7	=7	=7	=7	=7	=7	=7	=7	=7	=7	=7	=7	=7	=7	=7	=7	=7	=7	=7	=7	=7	=7
2C	2C	2r	.	2r	.	2r	.	2r	.	2c	.	2e	2C	2r	.	2cc	bi?	2r	.	2r	.	2r	.	2r	2r
4C	4C	4C	Po-	4G	Po-	4e	Po-	4cc	Po-	4c	.	4e	4C	4.cc	Po-	4ee	Po-	4C	Po-	4G	Po-	4g	Po-	4ee	4ccc
4D	4D	4D	tens	4F#	tens	4d	tens	4a	tens	4F#	.	4A	4D	.	.	4dd	tens	4D	tens	4d	tens	4f#	tens	4ff#	4aa
.	.	.	.	.	.	.	.	.	.	.	.	.	.	8b	tens	.	.	.	.	.	.	.	.	.	.
=8	=8	=8	=8	=8	=8	=8	=8	=8	=8	=8	=8	=8	=8	=8	=8	=8	=8	=8	=8	=8	=8	=8	=8	=8	=8
2GG	2GG	2GG	es,	2G	es,	2d	es,	2b	es,	2B	.	2d	2GG	2b	es,	2dd	es,	2GG	es,	2d	es,	2g	es,	2dd	2gg
4r	4r	4r	.	4r	.	4r	.	4r	.	4r	.	4r	4r	4r	.	4r	.	4r	.	4r	.	4r	.	4r	4r
4GG	4GG	4GG	po -	4B	po -	4g	po -	4ee	po -	4e	.	4G	4GG	4b	po -	4gg	po -	4G	po -	4B	po -	4e	po -	4ee	4gg
!!LO:LB
=9	=9	=9	=9	=9	=9	=9	=9	=9	=9	=9	=9	=9	=9	=9	=9	=9	=9	=9	=9	=9	=9	=9	=9	=9	=9
8GGL	8GGL	8GG	 -	8B	 -	8g	 -	8ee	 -	8eL	.	8gL	8GGL	8b	 -	8gg	 -	8G	 -	8B	 -	8e	 -	4b	8ggL
8GGJ	8GGJ	8GG	tens	8B	tens	8g	tens	8ee	tens	8eJ	.	8gJ	8GGJ	8cc	tens	8gg	tens	8G	tens	8B	tens	8e	tens	.	8ggJ
4GG	4GG	4GG	es,	4B	es,	4f	es,	4dd	es,	4B	.	4d	4GG	4dd	es,	4ff	es,	4G	es,	4B	es,	4d	es,	4b	4bb
4.AA	4.AA	4.AA	Do-	4.E	Do-	4.e	Do-	4.cc#	Do-	4.E	.	8r	4.AA	4.cc#	Do-	4.ee	Do-	4.A	Do-	4.c#	Do-	4.a	Do-	4.ee	4.aa
.	.	.	.	.	.	.	.	.	.	.	.	8aL	.	.	.	.	.	.	.	.	.	.	.	.	.
.	.	.	.	.	.	.	.	.	.	.	.	8a	.	.	.	.	.	.	.	.	.	.	.	.	.
8AA	8AA	8AA	mi-	8A	mi-	8e	mi-	8cc	mi-	8E	.	8aJ	8AA	8cc	mi-	8ee	mi-	8A	mi-	8c	mi-	8e	mi-	8ee	8aa
=10	=10	=10	=10	=10	=10	=10	=10	=10	=10	=10	=10	=10	=10	=10	=10	=10	=10	=10	=10	=10	=10	=10	=10	=10	=10
2AA	1AA	1AA	ne,	2A	ne,	2e	ne,	1cc#	ne,	2E	.	1a	1AA	2cc#	ne,	2ee	ne,	2A	ne,	2c#	ne,	4e	ne,	4ee	2aa
.	.	.	.	.	.	.	.	.	.	.	.	.	.	.	.	.	.	.	.	.	.	4e	et	4cc#	.
4AA	.	.	.	4E	et	4r	.	.	.	8r	.	.	.	4cc	et	4r	.	4AA	et	2r	.	8a	ve-	8eeL	4r
.	.	.	.	.	.	.	.	.	.	8eL	.	.	.	.	.	.	.	.	.	.	.	8a	ri-	8eeJ	.
4A	.	.	.	8A	ve-	4A	et	.	.	8e	.	.	.	8ee	ve-	4a	et	8A	ve-	.	.	4e	tas	4cc	4a
.	.	.	.	8A	ri-	.	.	.	.	8eJ	.	.	.	8ee	ri-	.	.	8A	ri-	.	.	.	.	.	.
=11	=11	=11	=11	=11	=11	=11	=11	=11	=11	=11	=11	=11	=11	=11	=11	=11	=11	=11	=11	=11	=11	=11	=11	=11	=11
4F#	4r	4r	.	4A	tas	8d	ve-	4r	.	2d	.	8r	4r	8a	tas	8dd	ve-	4F#	tas	4A	et	4f#	tu-	4dd	8aaL
.	.	.	.	.	.	8d	ri-	.	.	.	.	8dL	.	[(>8ddL	tu	8dd	ri-	.	.	.	.	.	.	.	8aaJ
4GG	4GG	4GG	et	4G	tu-	4B	tas	4dd	et	.	.	8g	4GG	16dd]	.	4b	tas	4G	tu-	8B	ve-	8d	a,	4dd	4gg
.	.	.	.	.	.	.	.	.	.	.	.	.	.	16ccn	.	.	.	.	.	.	.	.	.	.	.
.	.	.	.	.	.	.	.	.	.	.	.	8gJ	.	16dd	.	.	.	.	.	8B	ri-	8B	et	.	.
.	.	.	.	.	.	.	.	.	.	.	.	.	.	16eeJ)	.	.	.	.	.	.	.	.	.	.	.
8CL	8CL	8C	ve-	8G	a,	2cn	tu-	8ee	ve-	8r	.	4g	8CL	4cc	a,	4cc	tu-	4E	a,	4G	tas	8e	ve-	4r	4gg
8CJ	8CJ	8C	ri-	8G	et	.	.	8ee	ri-	8GL	.	.	8CJ	.	.	.	.	.	.	.	.	8e	ri-	.	.
4AA	4AA	4AA	tas	8F	ve-	.	.	4ccn	tas	8c	.	4f	4AA	8r	.	4cc	a,	4r	.	4A	tu-	4c	tas,	8r	4r
.	.	.	.	8F	ri-	.	.	.	.	8cJ	.	.	.	8cc	et	.	.	.	.	.	.	.	.	8ccn	.
!!LO:LB
=12	=12	=12	=12	=12	=12	=12	=12	=12	=12	=12	=12	=12	=12	=12	=12	=12	=12	=12	=12	=12	=12	=12	=12	=12	=12
4BB-	4BB-	4BB-	tu-	4F	tas	4B-	a,	4dd	tu-	4F	.	4f	4BB-	8dd	ve-	1r	.	2r	.	4F	a,	8r	.	8ffL	8r
.	.	.	.	.	.	.	.	.	.	.	.	.	.	8dd	ri-	.	.	.	.	.	.	8d	et	8ffJ	8ffL
8GGL	8GGL	8GG	a,	4E	tu-	4r	.	8b	a,	8r	.	4r	8GGL	4b	tas	.	.	.	.	4r	.	8g	ve-	8r	8gg
8GGJ	8GGJ	8GG	et	.	.	.	.	8b	et	8E	.	.	8GGJ	.	.	.	.	.	.	.	.	8g	ri-	8b	8ggJ
8AAL	8AAL	8AA	ve-	8E	a,	8r	.	8cc	ve-	8AL	.	8r	8AAL	4cc	tu-	.	.	4r	.	8r	.	4e	tas	8eeL	8r
8AAJ	8AAJ	8AA	ri-	8E	et	8A	et	8cc	ri-	8AJ	.	8AL	8AAJ	.	.	.	.	.	.	8A	et	.	.	8eeJ	8ccL
4FF#	4FF#	4FF#	tas	8D	ve-	8d	ve-	4a	tas	8r	.	8a	4FF#	4a	a,	.	.	4D	et	8d	ve-	(<8f#L	tu	4dd	8dd
.	.	.	.	8D	ri-	8d	ri-	.	.	8D	.	8aJ	.	.	.	.	.	.	.	8d	ri-	16g	.	.	8ddJ
.	.	.	.	.	.	.	.	.	.	.	.	.	.	.	.	.	.	.	.	.	.	16aJ)	.	.	.
=13	=13	=13	=13	=13	=13	=13	=13	=13	=13	=13	=13	=13	=13	=13	=13	=13	=13	=13	=13	=13	=13	=13	=13	=13	=13
4GG	4GG	8GG	tu-	4D	tas	4Bn	tas	4g	tu-	8dL	.	2g	4GG	2r	.	4b	et	8G	ve-	4B	tas	4d	a,	8ffL	8r
.	.	8GG	a,	.	.	.	.	.	.	8dJ	.	.	.	.	.	.	.	8G	ri-	.	.	.	.	8gg	8ddL
8CCL	8CCL	8r	.	4E	tu-	4c	tu-	4g	a,	4c	.	.	8CCL	.	.	8ee	ve-	4E	tas	4c	tu-	8r	.	8ccc	8gg
8CJ	8CJ	8C	et	.	.	.	.	.	.	.	.	.	8CJ	.	.	8ee	ri-	.	.	.	.	8e	et	8cccJ	8ggJ
8FL	8FL	8Fn	ve-	2A	a,	4A	a,	8r	.	4c	.	4a	8FL	8r	.	4cc	tas	4F	tu-	8A	a,	8a	ve-	2aa	8r
8FJ	8FJ	8F	ri-	.	.	.	.	8a	et	.	.	.	8FJ	8cc	et	.	.	.	.	8A	et	8a	ri-	.	8aaL
4D	4D	4D	tas	.	.	8r	.	8dd	ve-	4F	.	4r	4D	8ff	ve-	4dd	tu-	8D	a,	8B	ve-	4f	tas	.	8ddd
.	.	.	.	.	.	8d	et	8dd	ri-	.	.	.	.	8ff	ri-	.	.	8D	et	8B	ri-	.	.	.	8dddJ
=14	=14	=14	=14	=14	=14	=14	=14	=14	=14	=14	=14	=14	=14	=14	=14	=14	=14	=14	=14	=14	=14	=14	=14	=14	=14
8EL	4E	4E	tu-	8r	.	8g	ve-	8b	tas,	8r	.	4r	4E	2ee	tas	8b	a,	8E	ve-	4G	tas,	4g	tu-	8r	4gg
8EJ	.	.	.	8B	et	8g	ri-	8b	et	8GL	.	.	.	.	.	8b	et	8E	ri-	.	.	.	.	8bL	.
4C	8CL	8C	a,	8e	ve-	4e	tas,	8cc	ve-	8c	.	8r	8CL	.	.	8cc	ve-	4C	tas	8A	ve-	8e	a,	8ee	4r
.	8CJ	8C	et	8e	ri-	.	.	8cc	ri-	8cJ	.	8c	8CJ	.	.	8cc	ri-	.	.	8A	ri-	8e	et	8eeJ	.
4D	8DL	8D	ve-	4d	tas	8f	ve-	4a	tas	8FL	.	8fL	8DL	2dd	tu-	4a	tas	4D	tu-	4A	tas	8f	ve-	4a	8r
.	8DJ	8D	ri-	.	.	8f	ri-	.	.	8DJ	.	8fJ	8DJ	.	.	.	.	.	.	.	.	8f	ri-	.	8aL
4BB	4BB	4BB	tas	4d	tu-	4d	tas	4g	tu-	8r	.	4g	4BB	.	.	4b	tu-	4BB	a	4G	tu-	4d	tas	8r	8dd
.	.	.	.	.	.	.	.	.	.	8B	.	.	.	.	.	.	.	.	.	.	.	.	.	8dd	8ddJ
!!LO:LB
=15	=15	=15	=15	=15	=15	=15	=15	=15	=15	=15	=15	=15	=15	=15	=15	=15	=15	=15	=15	=15	=15	=15	=15	=15	=15
4C	4C	4C	tu-	1c	a	4e	tu-	4g	a	8eL	.	8gL	4C	2cc	a	2g	a	8C	in	2G	a	4e	tu-	8ggL	4g
.	.	.	.	.	.	.	.	.	.	8e	.	8g	.	.	.	.	.	8C	cir-	.	.	.	.	8ggJ	.
4C	4C	4C	a	.	.	4e	a	8cc	in	8e	.	8g	4C	.	.	.	.	8C	cu-	.	.	4c	a	4r	8ggL
.	.	.	.	.	.	.	.	8cc	cir-	16e	.	16g	.	.	.	.	.	16C	i-	.	.	.	.	.	8ggJ
.	.	.	.	.	.	.	.	.	.	16dJ	.	16fJ	.	.	.	.	.	16D	tu	.	.	.	.	.	.
8CCL	8CCL	8C	in	.	.	8e	in	8cc	cu-	8cL	.	[2e	8CCL	8cc	in	8ee	in	[2E	tu	2r	.	2r	.	8ggL	8ggL
8CC	8CC	8C	cir-	.	.	8e	cir-	16cc	i-	16B	.	.	8CC	8cc	cir-	8ee	cir-	.	.	.	.	.	.	8gg	16gg
.	.	.	.	.	.	.	.	16dd	tu	16AJ	.	.	.	.	.	.	.	.	.	.	.	.	.	.	16ffJ
8CC	8CC	8C	cu-	.	.	8e	cu-	4ee	tu-	4G	.	.	8CC	8cc	cu-	8ee	cu-	.	.	.	.	.	.	8gg	4ee
16CC	16CC	16C	i-	.	.	16e	i-	.	.	.	.	.	16CC	16b	i-	16dd	i-	.	.	.	.	.	.	16gg	.
16DDJ	16DDJ	16D	tu	.	.	16e	tu	.	.	.	.	.	16DDJ	16a	tu	16cc	tu	.	.	.	.	.	.	16ffJ	.
=16	=16	=16	=16	=16	=16	=16	=16	=16	=16	=16	=16	=16	=16	=16	=16	=16	=16	=16	=16	=16	=16	=16	=16	=16	=16
1EE	1EE	1E	tu-	8G#	in	1e	tu-	1ee	o,	4r	.	2e]	1EE	(<4g#	tu	(>4b	tu	1E]	.	8e	in	8B	in	2ee	8eeL
.	.	.	.	8G	cir-	.	.	.	.	.	.	.	.	.	.	.	.	.	.	8e	cir-	8B	cir-	.	8eeJ
.	.	.	.	8c	cu-	.	.	.	.	4E	.	.	.	2a	.	4a	.	.	.	8e	cu-	8B	cu-	.	8eeL
.	.	.	.	16c	i-	.	.	.	.	.	.	.	.	.	.	.	.	.	.	16d	i-	16c	i-	.	16ee
.	.	.	.	16c	tu	.	.	.	.	.	.	.	.	.	.	.	.	.	.	16c	tu	16d	tu	.	16eeJ
.	.	.	.	2B	tu-	.	.	.	.	4E	.	2e	.	.	.	2b)	.	.	.	2B	tu-	2e	tu-	8eeL	16eeL
.	.	.	.	.	.	.	.	.	.	.	.	.	.	.	.	.	.	.	.	.	.	.	.	.	16ff#
.	.	.	.	.	.	.	.	.	.	.	.	.	.	.	.	.	.	.	.	.	.	.	.	8ee	16gg#
.	.	.	.	.	.	.	.	.	.	.	.	.	.	.	.	.	.	.	.	.	.	.	.	.	16aaJ
.	.	.	.	.	.	.	.	.	.	4E	.	.	.	4g)	.	.	.	.	.	.	.	.	.	8.ee	8bbL
.	.	.	.	.	.	.	.	.	.	.	.	.	.	.	.	.	.	.	.	.	.	.	.	.	8eeJ
.	.	.	.	.	.	.	.	.	.	.	.	.	.	.	.	.	.	.	.	.	.	.	.	16eeJ	.
=17	=17	=17	=17	=17	=17	=17	=17	=17	=17	=17	=17	=17	=17	=17	=17	=17	=17	=17	=17	=17	=17	=17	=17	=17	=17
2AA	2AA	2AA	o,	2A	o,	2e	o,	8r	.	4E	.	2c#	2AA	1a	o,	2a	o,	4AA	o,	2c#	o,	2e	o,	8eeL	4ee
.	.	.	.	.	.	.	.	8cc#	et	.	.	.	.	.	.	.	.	.	.	.	.	.	.	8ee	.
.	.	.	.	.	.	.	.	8ee	ve-	8AL	.	.	.	.	.	.	.	4AA	et	.	.	.	.	8cc#	8r
.	.	.	.	.	.	.	.	8ee	ri-	8AJ	.	.	.	.	.	.	.	.	.	.	.	.	.	8ccJ	8ee
4AA	4FF	4AA	et	4r	.	8r	.	4a	tas,	4E	.	8r	4AA	.	.	4r	.	8A	ve-	8r	.	4e	et	4a	8cc#L
.	.	.	.	.	.	8e	et	.	.	.	.	8AL	.	.	.	.	.	8A	ri-	8e	et	.	.	.	8ccJ
8DL	8DL	8D	ve-	4A	et	8f	ve-	8r	.	8r	.	8a	8DL	.	.	4a	et	4F	tas	8d	ve-	8f	ve-	8r	4dd
8DJ	8DJ	8D	ri-	.	.	8f	ri-	8a	et	8A	.	8aJ	8DJ	.	.	.	.	.	.	8d	ri-	8f	ri-	8aa	.
!!LO:LB
=18	=18	=18	=18	=18	=18	=18	=18	=18	=18	=18	=18	=18	=18	=18	=18	=18	=18	=18	=18	=18	=18	=18	=18	=18	=18
4BB	4BB	4BB	.	8Gn	ve-	4d	tas	8dd	ve-	8dL	.	8r	4BB	2r	.	8b	ve-	4G	tu-	4d	tas	4d	tas	8ggL	8r
.	.	.	.	8G	ri-	.	.	8dd	ri-	8dJ	.	8dL	.	.	.	8b	ri-	.	.	.	.	.	.	8ggJ	8ddL
4C	4C	4C	.	4G	tas	4e	tu-	4g	tas	8r	.	8g	4C	.	.	4g	tas	8E	a,	8G	tu-	4e	tu-	8r	8ccn
.	.	.	.	.	.	.	.	.	.	8G	.	8gJ	.	.	.	.	.	8E	et	8G	a,	.	.	8gg	8ccJ
4AA	8AAL	8AAL	.	4F	tu-	8c	a,	4cc	tu-	8cL	.	8r	8AAL	8r	.	4a	tu-	8F	ve-	8r	.	4c	a,	8ffL	8r
.	8AA	8AA	.	.	.	8c	et	.	.	8cJ	.	8cL	8AA	8a	et	.	.	8F	ri-	8c	et	.	.	8ffJ	8cccL
4BB-	8BB-	8BB-	.	8F	a,	8d	ve-	8f	a,	8r	.	8f	8BB-	8dd	ve-	4f	a	4D	tas	8d	vi-	8r	.	8r	8bb-
.	8BBJ	8BBJ	.	8F	et	8d	ri-	8f	et	8D	.	8fJ	8BBJ	8dd	ri-	.	.	.	.	8d	ri-	8f	et	8ff	8bbJ
=19	=19	=19	=19	=19	=19	=19	=19	=19	=19	=19	=19	=19	=19	=19	=19	=19	=19	=19	=19	=19	=19	=19	=19	=19	=19
4GG	4GG	4GG	.	8E	ve-	4B	tas	8g	ve-	8GL	.	8r	4GG	4b	tas	2r	.	4E	tu-	4d	tas	8g	ve-	8eeL	8r
.	.	.	.	8E	ri-	.	.	8g	ri-	8GJ	.	8BL	.	.	.	.	.	.	.	.	.	8g	ri-	8eeJ	8bbnL
4AA	4AA	4AA	.	4E	tas	4c	tu-	4e	tas	8r	.	8e	4AA	4cc	tu-	.	.	4AA	a	8c	tu-	4e	tas	4ee	8aa
.	.	.	.	.	.	.	.	.	.	8A	.	8eJ	.	.	.	.	.	.	.	8c	a	.	.	.	8aaJ
2FF#	2FF#	2FF#	.	4D	tu-	2A	a	4a	tu-	8DL	.	8r	2FF#	2a	a	8a	in	8F#	in	8d	in	4d	tu-	8ff#L	8aaL
.	.	.	.	.	.	.	.	.	.	8DJ	.	8AL	.	.	.	8a	cir-	8F	cir-	8d	cir-	.	.	8ff	8aa
.	.	.	.	4D	a	.	.	4d	a	8DL	.	8d	.	.	.	8a	cu-	8F	cu-	8d	cu-	4d	a	8ff	8aa
.	.	.	.	.	.	.	.	.	.	16D	.	8dJ	.	.	.	16a	i-	16F	i-	16c	i-	.	.	16ff	16aa
.	.	.	.	.	.	.	.	.	.	16EJ	.	.	.	.	.	16a	tu	16G	tu	16B	tu	.	.	16eeJ	16ggJ
=20	=20	=20	=20	=20	=20	=20	=20	=20	=20	=20	=20	=20	=20	=20	=20	=20	=20	=20	=20	=20	=20	=20	=20	=20	=20
4.FF#	8FF#L	8FF#L	.	8D	in	4r	.	8a	in	4F#	.	8d	8FF#L	8dd	in	(>8.aL	tu	(>8AL	tu	1A	tu-	8d	in	2dd	8ff#L
.	8FF	8FF	.	8D	cir-	.	.	8a	cir-	.	.	4a	8FFJ	8dd	cir-	.	.	16G	.	.	.	8d	cir-	.	8ff
.	.	.	.	.	.	.	.	.	.	.	.	.	.	.	.	32b	.	16F#J	.	.	.	.	.	.	.
.	.	.	.	.	.	.	.	.	.	.	.	.	.	.	.	32ccJ	.	.	.	.	.	.	.	.	.
.	8FF	8FF	.	8D 8A 8d	.	8a	in	8a	cu-	4A	.	.	8FFL	8dd	cu-	2dd	.	16EL	.	.	.	8d	cu-	.	8ff
.	.	.	.	.	.	.	.	.	.	.	.	.	.	.	.	.	.	16D	.	.	.	.	.	.	.
8GG	16FF	16FF	.	16D	i-	8a	cir-	16a	i-	.	.	8a	16FF	16dd	i-	.	.	16C	.	.	.	16d	i-	.	16ff
.	16GGJ	16GGJ	.	16D	tu	.	.	16b	tu	.	.	.	16GGJ	16ee	tu	.	.	16BBJ	.	.	.	16g	tu	.	16eeJ
2AA	2AA	2AA	.	2A	tu-	8a	cu-	(>8cc#L	tu	2A	.	2a	2AA	(<4ee	tu	.	.	2AA)	.	.	.	2e	tu-	4.aa	4.ee
.	.	.	.	.	.	16g	i-	8ddJ	.	.	.	.	.	.	.	.	.	.	.	.	.	.	.	.	.
.	.	.	.	.	.	16f	tu	.	.	.	.	.	.	.	.	.	.	.	.	.	.	.	.	.	.
.	.	.	.	.	.	(<8eL	tu	4ee)	.	.	.	.	.	4a)	.	4cc#)	.	.	.	.	.	.	.	.	.
.	.	.	.	.	.	16f	.	.	.	.	.	.	.	.	.	.	.	.	.	.	.	.	.	8ee	8aa
.	.	.	.	.	.	16gJ)	.	.	.	.	.	.	.	.	.	.	.	.	.	.	.	.	.	.	.
=21	=21	=21	=21	=21	=21	=21	=21	=21	=21	=21	=21	=21	=21	=21	=21	=21	=21	=21	=21	=21	=21	=21	=21	=21	=21
1DD	1DD	1D	.	1A	o.	1f#	o.	1dd	o.	1A	.	1f#	1DD	1a	o.	1dd	o.	1D	o.	1A	o.	1d	o.	1ff#	1aa
!!LO:LB
=22	=22	=22	=22	=22	=22	=22	=22	=22	=22	=22	=22	=22	=22	=22	=22	=22	=22	=22	=22	=22	=22	=22	=22	=22	=22
[1D	[1D	1r	.	1r	.	1r	.	1r	.	1d	.	4.f#	1D	8r	.	1r	.	1r	.	1r	.	1r	.	1r	1r
.	.	.	.	.	.	.	.	.	.	.	.	.	.	8.a	Do-	.	.	.	.	.	.	.	.	.	.
.	.	.	.	.	.	.	.	.	.	.	.	.	.	16a	mi-	.	.	.	.	.	.	.	.	.	.
.	.	.	.	.	.	.	.	.	.	.	.	8e	.	8g	ne	.	.	.	.	.	.	.	.	.	.
.	.	.	.	.	.	.	.	.	.	.	.	2f	.	4a	De-	.	.	.	.	.	.	.	.	.	.
.	.	.	.	.	.	.	.	.	.	.	.	.	.	4a	us,	.	.	.	.	.	.	.	.	.	.
=23	=23	=23	=23	=23	=23	=23	=23	=23	=23	=23	=23	=23	=23	=23	=23	=23	=23	=23	=23	=23	=23	=23	=23	=23	=23
2D	2D]]	1r	.	1r	.	1r	.	1r	.	2d	.	2f#	2D	8r	.	1r	.	1r	.	1r	.	1r	.	1r	1r
.	.	.	.	.	.	.	.	.	.	.	.	.	.	8a	De-	.	.	.	.	.	.	.	.	.	.
.	.	.	.	.	.	.	.	.	.	.	.	.	.	8a	us	.	.	.	.	.	.	.	.	.	.
.	.	.	.	.	.	.	.	.	.	.	.	.	.	8g	vir-	.	.	.	.	.	.	.	.	.	.
2GG	2GG	.	.	.	.	.	.	.	.	2d	.	2g	2GG	4b	tu-	.	.	.	.	.	.	.	.	.	.
.	.	.	.	.	.	.	.	.	.	.	.	.	.	4b	tum,	.	.	.	.	.	.	.	.	.	.
=24	=24	=24	=24	=24	=24	=24	=24	=24	=24	=24	=24	=24	=24	=24	=24	=24	=24	=24	=24	=24	=24	=24	=24	=24	=24
[1E	[1EE	1r	.	1r	.	1r	.	1r	.	1e	.	4.g#	1EE	8r	.	1r	.	1r	.	1r	.	1r	.	1r	1r
.	.	.	.	.	.	.	.	.	.	.	.	.	.	8.b	Do-	.	.	.	.	.	.	.	.	.	.
.	.	.	.	.	.	.	.	.	.	.	.	.	.	16b	mi-	.	.	.	.	.	.	.	.	.	.
.	.	.	.	.	.	.	.	.	.	.	.	8f#	.	8a	ne	.	.	.	.	.	.	.	.	.	.
.	.	.	.	.	.	.	.	.	.	.	.	2g	.	4b	De-	.	.	.	.	.	.	.	.	.	.
.	.	.	.	.	.	.	.	.	.	.	.	.	.	4b	us,	.	.	.	.	.	.	.	.	.	.
=25	=25	=25	=25	=25	=25	=25	=25	=25	=25	=25	=25	=25	=25	=25	=25	=25	=25	=25	=25	=25	=25	=25	=25	=25	=25
2E]	2EE]	1r	.	1r	.	1r	.	1r	.	2e	.	2g#	2EE	8r	.	1r	.	1r	.	1r	.	1r	.	1r	1r
.	.	.	.	.	.	.	.	.	.	.	.	.	.	8b	De-	.	.	.	.	.	.	.	.	.	.
.	.	.	.	.	.	.	.	.	.	.	.	.	.	8b	us	.	.	.	.	.	.	.	.	.	.
.	.	.	.	.	.	.	.	.	.	.	.	.	.	8a	vie-	.	.	.	.	.	.	.	.	.	.
2AA	2AA	.	.	.	.	.	.	.	.	2e	.	2a	2AA	4cc	tu-	.	.	.	.	.	.	.	.	.	.
.	.	.	.	.	.	.	.	.	.	.	.	.	.	4cc	tum,	.	.	.	.	.	.	.	.	.	.
!!LO:LB
=26	=26	=26	=26	=26	=26	=26	=26	=26	=26	=26	=26	=26	=26	=26	=26	=26	=26	=26	=26	=26	=26	=26	=26	=26	=26
2A	2A	1r	.	1r	.	1r	.	1r	.	2e	.	2a	2A	4r	.	1r	.	1r	.	1r	.	1r	.	1r	1r
.	.	.	.	.	.	.	.	.	.	.	.	.	.	4cc	quis,	.	.	.	.	.	.	.	.	.	.
2F	2F	.	.	.	.	.	.	.	.	4f	.	2a	2F	8r	.	.	.	.	.	.	.	.	.	.	.
.	.	.	.	.	.	.	.	.	.	.	.	.	.	8cc	quis	.	.	.	.	.	.	.	.	.	.
.	.	.	.	.	.	.	.	.	.	4d	.	.	.	[4dd	si	.	.	.	.	.	.	.	.	.	.
=27	=27	=27	=27	=27	=27	=27	=27	=27	=27	=27	=27	=27	=27	=27	=27	=27	=27	=27	=27	=27	=27	=27	=27	=27	=27
4E	4E	1r	.	1r	.	1r	.	1r	.	2e	.	2gn	4E	8dd]	.	1r	.	1r	.	1r	.	1r	.	1r	1r
.	.	.	.	.	.	.	.	.	.	.	.	.	.	8cc	mi-	.	.	.	.	.	.	.	.	.	.
4F	4F	.	.	.	.	.	.	.	.	.	.	.	4F	4cc	lis	.	.	.	.	.	.	.	.	.	.
2G	4G	.	.	.	.	.	.	.	.	2d	.	2g	4G	(>4.cc	ti	.	.	.	.	.	.	.	.	.	.
.	4GG	.	.	.	.	.	.	.	.	.	.	.	4GG	.	.	.	.	.	.	.	.	.	.	.	.
.	.	.	.	.	.	.	.	.	.	.	.	.	.	8b)	.	.	.	.	.	.	.	.	.	.	.
=28	=28	=28	=28	=28	=28	=28	=28	=28	=28	=28	=28	=28	=28	=28	=28	=28	=28	=28	=28	=28	=28	=28	=28	=28	=28
2C	2C	1r	.	1r	.	1r	.	1r	.	2c	.	2e	2C	2cc	bi?	1r	.	2r	.	1r	.	1r	.	1r	1r
2FF	2r	.	.	.	.	.	.	.	.	2r	.	2r	2r	2r	.	.	.	8r	.	.	.	.	.	.	.
.	.	.	.	.	.	.	.	.	.	.	.	.	.	.	.	.	.	8A	Tu	.	.	.	.	.	.
.	.	.	.	.	.	.	.	.	.	.	.	.	.	.	.	.	.	8.A	do-	.	.	.	.	.	.
.	.	.	.	.	.	.	.	.	.	.	.	.	.	.	.	.	.	16G	mi-	.	.	.	.	.	.
=29	=29	=29	=29	=29	=29	=29	=29	=29	=29	=29	=29	=29	=29	=29	=29	=29	=29	=29	=29	=29	=29	=29	=29	=29	=29
2GG	1r	1r	.	1r	.	1r	.	1r	.	1r	.	1r	1r	1r	.	1r	.	8G	na-	1r	.	1r	.	1r	1r
.	.	.	.	.	.	.	.	.	.	.	.	.	.	.	.	.	.	8F	ris	.	.	.	.	.	.
.	.	.	.	.	.	.	.	.	.	.	.	.	.	.	.	.	.	8.F	po-	.	.	.	.	.	.
.	.	.	.	.	.	.	.	.	.	.	.	.	.	.	.	.	.	16E	te-	.	.	.	.	.	.
!LO:TX:a:i:t=,	!	!	!	!	!	!	!	!	!	!	!	!	!	!	!	!	!	!	!	!	!	!	!	!	!
2AA	.	.	.	.	.	.	.	.	.	.	.	.	.	.	.	.	.	8E	sta-	.	.	.	.	.	.
.	.	.	.	.	.	.	.	.	.	.	.	.	.	.	.	.	.	8E	ti	.	.	.	.	.	.
.	.	.	.	.	.	.	.	.	.	.	.	.	.	.	.	.	.	[4F	ma -	.	.	.	.	.	.
!!LO:LB
=30	=30	=30	=30	=30	=30	=30	=30	=30	=30	=30	=30	=30	=30	=30	=30	=30	=30	=30	=30	=30	=30	=30	=30	=30	=30
[1D	1r	1r	.	1r	.	1r	.	1r	.	1r	.	1r	1r	1r	.	1r	.	(>16FL_	.	8r	.	1r	.	1r	1r
.	.	.	.	.	.	.	.	.	.	.	.	.	.	.	.	.	.	16D	.	.	.	.	.	.	.
.	.	.	.	.	.	.	.	.	.	.	.	.	.	.	.	.	.	16E	.	8d	Tu	.	.	.	.
.	.	.	.	.	.	.	.	.	.	.	.	.	.	.	.	.	.	16FJ	.	.	.	.	.	.	.
.	.	.	.	.	.	.	.	.	.	.	.	.	.	.	.	.	.	[4G	.	8.d	do-	.	.	.	.
.	.	.	.	.	.	.	.	.	.	.	.	.	.	.	.	.	.	.	.	16c	mi-	.	.	.	.
.	.	.	.	.	.	.	.	.	.	.	.	.	.	.	.	.	.	16GL]	.	8c	na-	.	.	.	.
.	.	.	.	.	.	.	.	.	.	.	.	.	.	.	.	.	.	16D	.	.	.	.	.	.	.
.	.	.	.	.	.	.	.	.	.	.	.	.	.	.	.	.	.	16E	.	8B	ris	.	.	.	.
.	.	.	.	.	.	.	.	.	.	.	.	.	.	.	.	.	.	16F#J	.	.	.	.	.	.	.
.	.	.	.	.	.	.	.	.	.	.	.	.	.	.	.	.	.	16GL	.	8.B	po-	.	.	.	.
.	.	.	.	.	.	.	.	.	.	.	.	.	.	.	.	.	.	16A	.	.	.	.	.	.	.
.	.	.	.	.	.	.	.	.	.	.	.	.	.	.	.	.	.	16B	.	.	.	.	.	.	.
.	.	.	.	.	.	.	.	.	.	.	.	.	.	.	.	.	.	16cJ	.	16A	te-	.	.	.	.
=31	=31	=31	=31	=31	=31	=31	=31	=31	=31	=31	=31	=31	=31	=31	=31	=31	=31	=31	=31	=31	=31	=31	=31	=31	=31
2D]	1r	1r	.	1r	.	1r	.	1r	.	1r	.	1r	1r	1r	.	1r	.	[4d	.	8A	sta-	1r	.	1r	1r
.	.	.	.	.	.	.	.	.	.	.	.	.	.	.	.	.	.	.	.	8A	ti	.	.	.	.
.	.	.	.	.	.	.	.	.	.	.	.	.	.	.	.	.	.	16dL]	.	[(>4B	ma	.	.	.	.
.	.	.	.	.	.	.	.	.	.	.	.	.	.	.	.	.	.	16c	.	.	.	.	.	.	.
.	.	.	.	.	.	.	.	.	.	.	.	.	.	.	.	.	.	16B	.	.	.	.	.	.	.
.	.	.	.	.	.	.	.	.	.	.	.	.	.	.	.	.	.	16AJ	.	.	.	.	.	.	.
2E	.	.	.	.	.	.	.	.	.	.	.	.	.	.	.	.	.	[4G	.	16BL]	.	.	.	.	.
.	.	.	.	.	.	.	.	.	.	.	.	.	.	.	.	.	.	.	.	16G	.	.	.	.	.
.	.	.	.	.	.	.	.	.	.	.	.	.	.	.	.	.	.	.	.	16A	.	.	.	.	.
.	.	.	.	.	.	.	.	.	.	.	.	.	.	.	.	.	.	.	.	16BJ	.	.	.	.	.
.	.	.	.	.	.	.	.	.	.	.	.	.	.	.	.	.	.	16GL]	.	[4c	.	.	.	.	.
.	.	.	.	.	.	.	.	.	.	.	.	.	.	.	.	.	.	16E	.	.	.	.	.	.	.
.	.	.	.	.	.	.	.	.	.	.	.	.	.	.	.	.	.	16F	.	.	.	.	.	.	.
.	.	.	.	.	.	.	.	.	.	.	.	.	.	.	.	.	.	16GJ	.	.	.	.	.	.	.
=32	=32	=32	=32	=32	=32	=32	=32	=32	=32	=32	=32	=32	=32	=32	=32	=32	=32	=32	=32	=32	=32	=32	=32	=32	=32
4F	1r	1r	.	1r	.	1r	.	1r	.	1r	.	1r	1r	1r	.	1r	.	16AL	.	16cL]	.	1r	.	8ffL	2r
.	.	.	.	.	.	.	.	.	.	.	.	.	.	.	.	.	.	16E	.	16G	.	.	.	.	.
.	.	.	.	.	.	.	.	.	.	.	.	.	.	.	.	.	.	16F	.	16A	.	.	.	8aa	.
.	.	.	.	.	.	.	.	.	.	.	.	.	.	.	.	.	.	16GJ	.	16BJ	.	.	.	.	.
4C	.	.	.	.	.	.	.	.	.	.	.	.	.	.	.	.	.	16AL	.	16cL	.	.	.	8cc	.
.	.	.	.	.	.	.	.	.	.	.	.	.	.	.	.	.	.	16B	.	16d	.	.	.	.	.
.	.	.	.	.	.	.	.	.	.	.	.	.	.	.	.	.	.	16c	.	16e	.	.	.	8eeJ	.
.	.	.	.	.	.	.	.	.	.	.	.	.	.	.	.	.	.	16dJ	.	16fJ	.	.	.	.	.
2G	.	.	.	.	.	.	.	.	.	.	.	.	.	.	.	.	.	4B)	.	4d)	.	.	.	8.bL	8ddL
.	.	.	.	.	.	.	.	.	.	.	.	.	.	.	.	.	.	.	.	.	.	.	.	.	8gg
.	.	.	.	.	.	.	.	.	.	.	.	.	.	.	.	.	.	.	.	.	.	.	.	16cc	.
.	.	.	.	.	.	.	.	.	.	.	.	.	.	.	.	.	.	4B	ris:	4d	ris:	.	.	8dd	8b
.	.	.	.	.	.	.	.	.	.	.	.	.	.	.	.	.	.	.	.	.	.	.	.	8ccJ	8eeJ
=33	=33	=33	=33	=33	=33	=33	=33	=33	=33	=33	=33	=33	=33	=33	=33	=33	=33	=33	=33	=33	=33	=33	=33	=33	=33
*	*^	*	*	*	*	*	*	*	*	*	*	*	*	*	*	*	*	*	*	*	*	*	*	*	*
1GG	1g 1b	1d	1r	.	1r	.	1r	.	1r	.	1r	.	1r	1r	1r	.	1r	.	1r	.	1r	.	1r	.	8ddL	8.bL
.	.	.	.	.	.	.	.	.	.	.	.	.	.	.	.	.	.	.	.	.	.	.	.	.	8gJ	.
.	.	.	.	.	.	.	.	.	.	.	.	.	.	.	.	.	.	.	.	.	.	.	.	.	.	16cc
.	.	.	.	.	.	.	.	.	.	.	.	.	.	.	.	.	.	.	.	.	.	.	.	.	4g	8dd
.	.	.	.	.	.	.	.	.	.	.	.	.	.	.	.	.	.	.	.	.	.	.	.	.	.	8ccJ
.	.	.	.	.	.	.	.	.	.	.	.	.	.	.	.	.	.	.	.	.	.	.	.	.	2r	8ddL
.	.	.	.	.	.	.	.	.	.	.	.	.	.	.	.	.	.	.	.	.	.	.	.	.	.	8gJ
.	.	.	.	.	.	.	.	.	.	.	.	.	.	.	.	.	.	.	.	.	.	.	.	.	.	4g
*	*v	*v	*	*	*	*	*	*	*	*	*	*	*	*	*	*	*	*	*	*	*	*	*	*	*	*
!!LO:LB
=34	=34	=34	=34	=34	=34	=34	=34	=34	=34	=34	=34	=34	=34	=34	=34	=34	=34	=34	=34	=34	=34	=34	=34	=34	=34
4BB	4BB	1r	.	1r	.	1r	.	1r	.	4d	.	4g	4BB	8gg	...mo-	2r	.	1r	.	1r	.	1r	.	1r	1r
.	.	.	.	.	.	.	.	.	.	.	.	.	.	8dd	tum	.	.	.	.	.	.	.	.	.	.
4C	4C	.	.	.	.	.	.	.	.	8cL	.	4g	4C	8ee	au-	.	.	.	.	.	.	.	.	.	.
.	.	.	.	.	.	.	.	.	.	8eJ	.	.	.	8cc	tem	.	.	.	.	.	.	.	.	.	.
4BB	4BB	.	.	.	.	.	.	.	.	4d	.	4.g	4BB	8dd	flu-	8gg	...mo-	.	.	.	.	.	.	.	.
.	.	.	.	.	.	.	.	.	.	.	.	.	.	8b	ctu-	8dd	tum	.	.	.	.	.	.	.	.
4C	4C	.	.	.	.	.	.	.	.	4c	.	.	4C	4g	um	8ee	au-	.	.	.	.	.	.	.	.
.	.	.	.	.	.	.	.	.	.	.	.	8e	.	.	.	8cc	tem	.	.	.	.	.	.	.	.
=35	=35	=35	=35	=35	=35	=35	=35	=35	=35	=35	=35	=35	=35	=35	=35	=35	=35	=35	=35	=35	=35	=35	=35	=35	=35
4BB	4BB	1r	.	1r	.	1r	.	1r	.	4G	.	4d	4BB	(>8.bL	e	8dd	flu-	1r	.	1r	.	1r	.	1r	1r
.	.	.	.	.	.	.	.	.	.	.	.	.	.	.	.	8b	ctu-	.	.	.	.	.	.	.	.
.	.	.	.	.	.	.	.	.	.	.	.	.	.	32cc	.	.	.	.	.	.	.	.	.	.	.
.	.	.	.	.	.	.	.	.	.	.	.	.	.	32ddJ	.	.	.	.	.	.	.	.	.	.	.
4C	4C	.	.	.	.	.	.	.	.	4G	.	4c	4C	8.eeL	.	4g	um	.	.	.	.	.	.	.	.
.	.	.	.	.	.	.	.	.	.	.	.	.	.	32ff	.	.	.	.	.	.	.	.	.	.	.
.	.	.	.	.	.	.	.	.	.	.	.	.	.	32eeJ	.	.	.	.	.	.	.	.	.	.	.
4G	4G	.	.	.	.	.	.	.	.	4G	.	4B	4G	8.ddL	.	(>8.bL	e	.	.	.	.	.	.	.	.
.	.	.	.	.	.	.	.	.	.	.	.	.	.	32ee	.	32cc	.	.	.	.	.	.	.	.	.
.	.	.	.	.	.	.	.	.	.	.	.	.	.	32ddJ	.	32ddJ	.	.	.	.	.	.	.	.	.
4C	4C	.	.	.	.	.	.	.	.	4G	.	4c	4C	8.ccL	.	8.eeL	.	.	.	.	.	.	.	.	.
.	.	.	.	.	.	.	.	.	.	.	.	.	.	32dd	.	32ff	.	.	.	.	.	.	.	.	.
.	.	.	.	.	.	.	.	.	.	.	.	.	.	32ccJ	.	32eeJ	.	.	.	.	.	.	.	.	.
=36	=36	=36	=36	=36	=36	=36	=36	=36	=36	=36	=36	=36	=36	=36	=36	=36	=36	=36	=36	=36	=36	=36	=36	=36	=36
4GG	4GG	1r	.	1r	.	1r	.	1r	.	4G	.	4d	4GG	4b)	.	4dd)	.	1r	.	1r	.	1r	.	1r	1r
4GG	4GG	.	.	.	.	.	.	.	.	4G	.	4d	4GG	4b	ius:	4dd	ius	.	.	.	.	.	.	.	.
2G	2r	.	.	.	.	.	.	.	.	2r	.	2r	2r	2r	.	4r	.	.	.	.	.	.	.	.	.
.	.	.	.	.	.	.	.	.	.	.	.	.	.	.	.	4b	tu	.	.	.	.	.	.	.	.
=37	=37	=37	=37	=37	=37	=37	=37	=37	=37	=37	=37	=37	=37	=37	=37	=37	=37	=37	=37	=37	=37	=37	=37	=37	=37
2E	1r	1r	.	1r	.	1r	.	1r	.	1r	.	1r	1r	4r	.	2.cc	mi-	1r	.	1r	.	1r	.	1r	1r
.	.	.	.	.	.	.	.	.	.	.	.	.	.	4g#	tu	.	.	.	.	.	.	.	.	.	.
2F	.	.	.	.	.	.	.	.	.	.	.	.	.	[2a	mi	.	.	.	.	.	.	.	.	.	.
.	.	.	.	.	.	.	.	.	.	.	.	.	.	.	.	4dd	ti-	.	.	.	.	.	.	.	.
=38	=38	=38	=38	=38	=38	=38	=38	=38	=38	=38	=38	=38	=38	=38	=38	=38	=38	=38	=38	=38	=38	=38	=38	=38	=38
4D	1r	1r	.	1r	.	1r	.	1r	.	.	.	1r	1r	4a]	.	2b	gas,	1r	.	1r	.	1r	.	1r	1r
4E	.	.	.	.	.	.	.	.	.	.	.	.	.	4g#	ti-	.	.	.	.	.	.	.	.	.	.
2AA	.	.	.	.	.	.	.	.	.	.	.	.	.	2a	gas,	2r	.	.	.	.	.	.	.	.	.
!!LO:LB
=39	=39	=39	=39	=39	=39	=39	=39	=39	=39	=39	=39	=39	=39	=39	=39	=39	=39	=39	=39	=39	=39	=39	=39	=39	=39
4FF#	4FF#	1r	.	1r	.	1r	.	1r	.	4A	.	4d	4FF#	1r	.	1r	.	8d	mo-	2r	.	1r	.	1r	1r
.	.	.	.	.	.	.	.	.	.	.	.	.	.	.	.	.	.	8A	tum	.	.	.	.	.	.
4GG	4GG	.	.	.	.	.	.	.	.	8GL	.	4d	4GG	.	.	.	.	8B	au-	.	.	.	.	.	.
.	.	.	.	.	.	.	.	.	.	8BJ	.	.	.	.	.	.	.	8G	tem	.	.	.	.	.	.
4FF	4FF	.	.	.	.	.	.	.	.	4A	.	4.d	4FF	.	.	.	.	8A	flu-	8d	mo-	.	.	.	.
.	.	.	.	.	.	.	.	.	.	.	.	.	.	.	.	.	.	8F#	ctu-	8A	tum	.	.	.	.
4GG	4GG	.	.	.	.	.	.	.	.	4G	.	.	4GG	.	.	.	.	4D	um	8B	au-	.	.	.	.
.	.	.	.	.	.	.	.	.	.	.	.	8B	.	.	.	.	.	.	.	8G	tem	.	.	.	.
=40	=40	=40	=40	=40	=40	=40	=40	=40	=40	=40	=40	=40	=40	=40	=40	=40	=40	=40	=40	=40	=40	=40	=40	=40	=40
4FF#	4FF#	8F#	...mo-	8d	...mo-	8a	...mo-	8dd	...mo-	4D	.	4A	4FF#	1r	.	1r	.	(>8.F#L	e	8A	flu-	8d	...mo-	2r	8aaL
.	.	8D	tum	8d	tum	8d	tum	8a	tum	.	.	.	.	.	.	.	.	.	.	8F#	ctu-	8A	tum	.	8ddd
.	.	.	.	.	.	.	.	.	.	.	.	.	.	.	.	.	.	32G	.	.	.	.	.	.	.
.	.	.	.	.	.	.	.	.	.	.	.	.	.	.	.	.	.	32AJ	.	.	.	.	.	.	.
4GG	4GG	8G	au-	8d	au-	8d	au-	8dd	au-	4D	.	4G	4GG	.	.	.	.	8.BL	.	4D	um,	8d	au-	.	8bb
.	.	8GG	tem	8B	tem	8d	tem	8dd	tem	.	.	.	.	.	.	.	.	.	.	.	.	8d	tem	.	8ggJ
.	.	.	.	.	.	.	.	.	.	.	.	.	.	.	.	.	.	32c	.	.	.	.	.	.	.
.	.	.	.	.	.	.	.	.	.	.	.	.	.	.	.	.	.	32BJ	.	.	.	.	.	.	.
4D	4D	8D	fluc-	8F#	fluc-	8d	fluc-	8d 8dd	.	4D	.	4A	4D	.	.	.	.	16AL	.	(>8.FL	e	4d	flu-	8aaL	8aaL
.	.	.	.	.	.	.	.	.	.	.	.	.	.	.	.	.	.	16B)	.	.	.	.	.	.	.
.	.	16D	tu-	16F	tu-	16d	tu-	16dd	tu-	.	.	.	.	.	.	.	.	16c	.	.	.	.	.	8ddd	8ff#J
.	.	16D	um	16F	um	16d	um	16dd	um	.	.	.	.	.	.	.	.	16AJ	.	32G	.	.	.	.	.
.	.	.	.	.	.	.	.	.	.	.	.	.	.	.	.	.	.	.	.	32AJ	.	.	.	.	.
4GG	4GG	(<16GGL	e	4B	e-	4g	e-	[4dd	e	8GL	.	4d	4GG	.	.	.	.	8.GL	.	8.BL	.	8d	ctu-	8bb	4dd
.	.	16AA	.	.	.	.	.	.	.	.	.	.	.	.	.	.	.	.	.	.	.	.	.	.	.
.	.	16BB	ius,	.	.	.	.	.	.	8DJ	.	.	.	.	.	.	.	.	.	.	.	8d	um	8ggJ	.
.	.	16GGJ)	tu	.	.	.	.	.	.	.	.	.	.	.	.	.	.	32A	.	32c	.	.	.	.	.
.	.	.	.	.	.	.	.	.	.	.	.	.	.	.	.	.	.	32GJ	.	32BJ	.	.	.	.	.
=41	=41	=41	=41	=41	=41	=41	=41	=41	=41	=41	=41	=41	=41	=41	=41	=41	=41	=41	=41	=41	=41	=41	=41	=41	=41
2.D	2.D	4D	.	2A	ius,	1f#	ius,	4dd]]	.	4D	.	2d	2.D	2r	.	4r	.	4F#	.	4A)	.	2d	e-	8aaL	4r
.	.	.	.	.	.	.	.	.	.	.	.	.	.	.	.	.	.	.	.	.	.	.	.	8ff#J	.
.	.	4D	.	.	.	.	.	4dd	ius,	4F#	.	.	.	.	.	4a	...tu	4F	ius	4A	ius	.	.	4dd	4ff#
.	.	2D	.	2r	.	.	.	4r	.	[2F	.	2f#	.	(>4f#	tu	[2dd	mi -	2D	tu	2F#	tu	2d	ius	2ff	4.bb
4E	4E	.	.	.	.	.	.	4dd	tu	.	.	.	4E	4b)	.	.	.	.	.	.	.	.	.	.	.
.	.	.	.	.	.	.	.	.	.	.	.	.	.	.	.	.	.	.	.	.	.	.	.	.	8ccc#
!!LO:LB
=42	=42	=42	=42	=42	=42	=42	=42	=42	=42	=42	=42	=42	=42	=42	=42	=42	=42	=42	=42	=42	=42	=42	=42	=42	=42
1F#	2F#	2.F#	mi-	4r	.	4r	.	2dd	mi-	4F]	.	2.f#	2F#	2b	mi-	2dd	-	2.F#	mi-	2.F#	mi-	4r	.	2.ff#	4aa#
.	.	.	.	4F#	tu	4f#	tu	.	.	4G#	.	.	.	.	.	.	.	.	.	.	.	4d	tu	.	4bb
.	2FF#	.	.	4.c#	mi-	4.f	mi-	2cc#	ti-	8A#L	.	.	2FF#	2a#	ti-	2cc#	ti-	.	.	.	.	4f#	mi-	.	4ccc#
.	.	.	.	.	.	.	.	.	.	8B	.	.	.	.	.	.	.	.	.	.	.	.	.	.	.
.	.	4FF#	ti-	.	.	.	.	.	.	8c#	.	4f	.	.	.	.	.	4F	ti-	4F	ti-	4c#	ti-	4ff	4ff#
.	.	.	.	8F	ti-	8f	ti-	.	.	8FJ	.	.	.	.	.	.	.	.	.	.	.	.	.	.	.
=43	=43	=43	=43	=43	=43	=43	=43	=43	=43	=43	=43	=43	=43	=43	=43	=43	=43	=43	=43	=43	=43	=43	=43	=43	=43
1BB	1BB	1BB	gas.	1F#	gas.-	1d#	gas.	1b	gas.	1F#	.	1f#	1BB	1b	gas.	1b	gas.	1BB	gas.	1F#	gas.	1d#	gas.	1ff#	4.ff#
.	.	.	.	.	.	.	.	.	.	.	.	.	.	.	.	.	.	.	.	.	.	.	.	.	16ggL
.	.	.	.	.	.	.	.	.	.	.	.	.	.	.	.	.	.	.	.	.	.	.	.	.	16aaJ
.	.	.	.	.	.	.	.	.	.	.	.	.	.	.	.	.	.	.	.	.	.	.	.	.	2bb
=44	=44	=44	=44	=44	=44	=44	=44	=44	=44	=44	=44	=44	=44	=44	=44	=44	=44	=44	=44	=44	=44	=44	=44	=44	=44
1D	[1D	1r	.	1r	.	1r	.	1r	.	1A	.	1d	1D	8r	.	8r	.	1r	.	1r	.	1r	.	1r	1r
.	.	.	.	.	.	.	.	.	.	.	.	.	.	8.f#	Do-	8.a	Do-	.	.	.	.	.	.	.	.
.	.	.	.	.	.	.	.	.	.	.	.	.	.	16f	mi-	16a	mi-	.	.	.	.	.	.	.	.
.	.	.	.	.	.	.	.	.	.	.	.	.	.	8e	ne	8g	ne	.	.	.	.	.	.	.	.
.	.	.	.	.	.	.	.	.	.	.	.	.	.	4f	De-	4a	De-	.	.	.	.	.	.	.	.
.	.	.	.	.	.	.	.	.	.	.	.	.	.	4f	us,	4a	us,	.	.	.	.	.	.	.	.
=45	=45	=45	=45	=45	=45	=45	=45	=45	=45	=45	=45	=45	=45	=45	=45	=45	=45	=45	=45	=45	=45	=45	=45	=45	=45
2D	2D]	1r	.	1r	.	1r	.	1r	.	2A	.	2d	2D	8r	.	8r	.	1r	.	1r	.	1r	.	1r	1r
.	.	.	.	.	.	.	.	.	.	.	.	.	.	8f#	De-	8a	De-	.	.	.	.	.	.	.	.
.	.	.	.	.	.	.	.	.	.	.	.	.	.	8f	us	8a	us	.	.	.	.	.	.	.	.
.	.	.	.	.	.	.	.	.	.	.	.	.	.	8e	vir-	8g	vir-	.	.	.	.	.	.	.	.
2GG	2GG	.	.	.	.	.	.	.	.	2G	.	2d	2GG	4g	tu-	4b	tiu-	.	.	.	.	.	.	.	.
.	.	.	.	.	.	.	.	.	.	.	.	.	.	4g	tum,	4b	tum,	.	.	.	.	.	.	.	.
!!LO:LB
=46	=46	=46	=46	=46	=46	=46	=46	=46	=46	=46	=46	=46	=46	=46	=46	=46	=46	=46	=46	=46	=46	=46	=46	=46	=46
1E	1EE	1r	.	1r	.	1r	.	1r	.	1B	.	1e	1EE	1r	.	1r	.	1r	.	8r	.	8r	.	1r	1r
.	.	.	.	.	.	.	.	.	.	.	.	.	.	.	.	.	.	.	.	8.G#	Do-	8.B	Do-	.	.
.	.	.	.	.	.	.	.	.	.	.	.	.	.	.	.	.	.	.	.	16G	mi-	16B	mi-	.	.
.	.	.	.	.	.	.	.	.	.	.	.	.	.	.	.	.	.	.	.	8F#	ne	8A	ne	.	.
.	.	.	.	.	.	.	.	.	.	.	.	.	.	.	.	.	.	.	.	4G	De-	4B	De-	.	.
.	.	.	.	.	.	.	.	.	.	.	.	.	.	.	.	.	.	.	.	4G	us,	4B	us,	.	.
=47	=47	=47	=47	=47	=47	=47	=47	=47	=47	=47	=47	=47	=47	=47	=47	=47	=47	=47	=47	=47	=47	=47	=47	=47	=47
2E	2EE	1r	.	1r	.	1r	.	1r	.	2B	.	2e	2EE	1r	.	1r	.	1r	.	8r	.	8r	.	1r	1r
.	.	.	.	.	.	.	.	.	.	.	.	.	.	.	.	.	.	.	.	8G#	De-	8B	De-	.	.
.	.	.	.	.	.	.	.	.	.	.	.	.	.	.	.	.	.	.	.	8G	us	8B	us	.	.
.	.	.	.	.	.	.	.	.	.	.	.	.	.	.	.	.	.	.	.	8F#	vir-	8A	vir-	.	.
2AA	2AA	.	.	.	.	.	.	.	.	2A	.	2e	2AA	.	.	.	.	.	.	4A	tu-	4c	tu-	.	.
.	.	.	.	.	.	.	.	.	.	.	.	.	.	.	.	.	.	.	.	4A	tum,	4c	tum,	.	.
=48	=48	=48	=48	=48	=48	=48	=48	=48	=48	=48	=48	=48	=48	=48	=48	=48	=48	=48	=48	=48	=48	=48	=48	=48	=48
2AA	4AA	1r	.	1r	.	1r	.	1r	.	4.c	.	4e	4AA	4r	.	4r	.	4r	.	4r	.	4r	.	1r	1r
.	8r	.	.	.	.	.	.	.	.	.	.	8r	8r	4cc	quis	4ee	quis,	4AA	quis,	4A	quis,	4e	quis,	.	.
.	8AA	.	.	.	.	.	.	.	.	8e	.	8c	8AA	.	.	.	.	.	.	.	.	.	.	.	.
2AA	4.A	.	.	.	.	.	.	.	.	4.c	.	4e	4.A	4r	.	8r	.	4r	.	4r	.	4r	.	.	.
.	.	.	.	.	.	.	.	.	.	.	.	.	.	.	.	8ee	quis	.	.	.	.	.	.	.	.
.	.	.	.	.	.	.	.	.	.	.	.	8r	.	8r	.	[4ff	si	8r	.	8r	.	8r	.	.	.
.	8AA	.	.	.	.	.	.	.	.	8f	.	8a	8AA	8cc	.	.	.	8A	quis	8A	quis	8f	quis	.	.
=49	=49	=49	=49	=49	=49	=49	=49	=49	=49	=49	=49	=49	=49	=49	=49	=49	=49	=49	=49	=49	=49	=49	=49	=49	=49
4BB-	4BB-	1r	.	1r	.	1r	.	1r	.	4f	.	8aL	4BB-	4dd	.	8ff]	.	4B-	si-	4d	si-	4d	si-	1r	1r
.	.	.	.	.	.	.	.	.	.	.	.	8gJ	.	.	.	8ee	mi-	.	.	.	.	.	.	.	.
4GG	4GG	.	.	.	.	.	.	.	.	8r	.	4g	4GG	8ddL	.	4ee	lis	8G	mi-	8B-	mi-	8e	mi-	.	.
.	.	.	.	.	.	.	.	.	.	8g	.	.	.	8ddJ	.	.	.	8G	lis	8B	lis	8e	lis	.	.
2AA	2AA	.	.	.	.	.	.	.	.	8c#L	.	8eL	2AA	4.dd	.	2ee	ti-	2A	ti-	2A	ti-	2a	ti-	.	.
.	.	.	.	.	.	.	.	.	.	8d	.	16f	.	.	.	.	.	.	.	.	.	.	.	.	.
.	.	.	.	.	.	.	.	.	.	.	.	16gJ	.	.	.	.	.	.	.	.	.	.	.	.	.
.	.	.	.	.	.	.	.	.	.	8e	.	8aL	.	.	.	.	.	.	.	.	.	.	.	.	.
.	.	.	.	.	.	.	.	.	.	8AJ	.	8eJ	.	8cc#	.	.	.	.	.	.	.	.	.	.	.
=50	=50	=50	=50	=50	=50	=50	=50	=50	=50	=50	=50	=50	=50	=50	=50	=50	=50	=50	=50	=50	=50	=50	=50	=50	=50
1DD	1DD	1r	.	1r	.	1r	.	1r	.	4.A	.	1f#	1DD	1dd	.	1dd	bi?	1D	bi?	1A	bi?	1a	bi?	1r	1r
.	.	.	.	.	.	.	.	.	.	16BL	.	.	.	.	.	.	.	.	.	.	.	.	.	.	.
.	.	.	.	.	.	.	.	.	.	16c#J	.	.	.	.	.	.	.	.	.	.	.	.	.	.	.
.	.	.	.	.	.	.	.	.	.	2d	.	.	.	.	.	.	.	.	.	.	.	.	.	.	.
!!LO:LB
=51	=51	=51	=51	=51	=51	=51	=51	=51	=51	=51	=51	=51	=51	=51	=51	=51	=51	=51	=51	=51	=51	=51	=51	=51	=51
2GG	2GG	2GG	Tu-	2B	Tu-	2g	Tu-	2dd	Tu-	2B	.	2g	2GG	2dd	Tu-	2b	Tu-	2G	Tu-	2d	Tu-	2d	Tu-	2dd	2gg
2GG	2GG	2GG	i	2B	i	2g	i	2dd	i	2B	.	2g	2GG	2dd	i	2b	i	2G	i	2d	i	2d	i	2dd	2gg
2GG	2GG	2GG	sunt	2B	sunt	2g	sunt	2dd	sunt	2G	.	2g	2GG	2dd	sunt	2b	sunt	2G	sunt	2B	dunt	2g	sunt	2dd	2gg
=52	=52	=52	=52	=52	=52	=52	=52	=52	=52	=52	=52	=52	=52	=52	=52	=52	=52	=52	=52	=52	=52	=52	=52	=52	=52
1CC	1CC	1C	cae-	1c	cae-	1g	cae-	1ee	cae-	2G	.	1e	1CC	1cc	cae-	1ee	cae-	1c	cae-	2c	cae-	1g	cae-	1ee	1gg
.	.	.	.	.	.	.	.	.	.	1c	.	.	.	.	.	.	.	.	.	2c	li,	.	.	.	.
2C	2C	2C	li	2c	li	2g	li	2ee	li	.	.	2e	2C	2cc	lie	2ee	lie	2c	li	2G	et	2g	li	2ee	2gg
=53	=53	=53	=53	=53	=53	=53	=53	=53	=53	=53	=53	=53	=53	=53	=53	=53	=53	=53	=53	=53	=53	=53	=53	=53	=53
2C	2C	2r	.	2r	.	2r	.	2r	.	2e	.	1e	2C	2r	.	2r	.	2r	.	2c	tu-	2r	.	2r	2r
2BB	2BB	2r	.	2r	.	2r	.	2r	.	2d	.	.	2BB	2r	.	2r	.	2r	.	2d	a	2r	.	2r	2r
2AA	2AA	2A	et	2c	et	2e	et	2ee	et	2c	.	4a	2AA	2cc	et	2ee	et	2AA	et	2e	est	2a	et	2ee	2aa
.	.	.	.	.	.	.	.	.	.	.	.	4e	.	.	.	.	.	.	.	.	.	.	.	.	.
=54	=54	=54	=54	=54	=54	=54	=54	=54	=54	=54	=54	=54	=54	=54	=54	=54	=54	=54	=54	=54	=54	=54	=54	=54	=54
1.E	1.E	2E	tu-	2c	tu-	2c	tu-	2ee	tu-	1c	.	1.e	1.E	2ee	tu-	2gg	tu-	2E	tu-	2G	ter-	2c	tu-	1ee	2cc
.	.	2E	a	2B	a	2d	a	2dd	a	.	.	.	.	2dd	a	2ff	a	2E	a	2G	ra,	2d	a	.	2bb
.	.	2E	est	2A	est	2e	est	2cc	est	2r	.	.	.	2cc	est	2ee	est	2E	est	2r	.	2e	est	2ee	2aa
=55	=55	=55	=55	=55	=55	=55	=55	=55	=55	=55	=55	=55	=55	=55	=55	=55	=55	=55	=55	=55	=55	=55	=55	=55	=55
1.E	1.E	1E	ter-	1G#	ter-	1e	ter-	1b	ter-	2c	.	1.e	1.E	1g#	ter-	1b	ter-	1EE	ter-	1.r	.	1e	ter-	1ee	1bb
.	.	.	.	.	.	.	.	.	.	2r	.	.	.	.	.	.	.	.	.	.	.	.	.	.	.
.	.	2E	ra,	2G	ra,	2e	ra,	2b	ra,	2B	.	.	.	2g	ra,	2b	ra,	2EE	ra,	.	.	2B	ra,	2ee	2bb
=56	=56	=56	=56	=56	=56	=56	=56	=56	=56	=56	=56	=56	=56	=56	=56	=56	=56	=56	=56	=56	=56	=56	=56	=56	=56
!!Error: measure 56, staff 2 is underfilled: adding token 2ryy at end of measure to complete its duration.
4EE	4EE	1.r	.	1.r	.	1.r	.	1.r	.	2B	.	1e	4EE 4BB	1g#	or-	1b	or-	1E	or-	1e	or-	1B	or-	1r	1.r
4DD	4DD	.	.	.	.	.	.	.	.	.	.	.	4DD	.	.	.	.	.	.	.	.	.	.	.	.
4EE	4EE	.	.	.	.	.	.	.	.	1B	.	.	4EE	.	.	.	.	.	.	.	.	.	.	.	.
4FF#	4FF#	.	.	.	.	.	.	.	.	.	.	.	4FF#	.	.	.	.	.	.	.	.	.	.	.	.
4GG#	4GG#	.	.	.	.	.	.	.	.	.	.	2e	4GG#	2g	bem	2b	bem	2E	bem	2B	bem	2e	bem	2ryy	.
4EE	4EE	.	.	.	.	.	.	.	.	.	.	.	4EE	.	.	.	.	.	.	.	.	.	.	.	.
=57	=57	=57	=57	=57	=57	=57	=57	=57	=57	=57	=57	=57	=57	=57	=57	=57	=57	=57	=57	=57	=57	=57	=57	=57	=57
!!Error: measure 57, staff 2 is underfilled: adding token 2ryy at end of measure to complete its duration.
1.AA	1AA	1.r	.	1.r	.	1.r	.	1.r	.	2E	.	1e	1AA	1a	ter-	1cc#	ter-	1AA	ter-	1A	ter-	1e	ter-	1r	1.r
.	.	.	.	.	.	.	.	.	.	1E	.	.	.	.	.	.	.	.	.	.	.	.	.	.	.
.	2AA	.	.	.	.	.	.	.	.	.	.	2a	2AA	2a	rae	2cc	rae	2AA	rae	2A	rae	2e	rae	2ryy	.
!!LO:LB
=58	=58	=58	=58	=58	=58	=58	=58	=58	=58	=58	=58	=58	=58	=58	=58	=58	=58	=58	=58	=58	=58	=58	=58	=58	=58
2AA	2AA	2A	et	2c#	et	2e	et	2ee	et	2e	.	2a	2AA	2cc#	et	2ee	et	2AA	et	2A	et	2e	et	4cc#	4ee
.	.	.	.	.	.	.	.	.	.	.	.	.	.	.	.	.	.	.	.	.	.	.	.	4b	4dd
2AA	2AA	2A	ple-	2c	ple-	2e	ple-	2ee	ple-	2e	.	2a	2AA	2cc	ple-	2ee	ple-	2AA	ple-	2A	ple-	2e	ple-	4cc	4ee
.	.	.	.	.	.	.	.	.	.	.	.	.	.	.	.	.	.	.	.	.	.	.	.	4dd	4ff
2AA	2AA	2A	ni-	2c	ni-	2g	ni-	2ee	ni-	2A	.	2a	2AA	2a	ni-	2ee	ni-	2AA	ni-	2A	ni-	2a	ni-	4ee	4gg
.	.	.	.	.	.	.	.	.	.	.	.	.	.	.	.	.	.	.	.	.	.	.	.	4cc	4ee
=59	=59	=59	=59	=59	=59	=59	=59	=59	=59	=59	=59	=59	=59	=59	=59	=59	=59	=59	=59	=59	=59	=59	=59	=59	=59
1DD	2.DD	2.D	tu-	2.d	tu-	2.f#	tu-	2.dd	tu-	2A	.	2.f#	2.DD	2.a	tu-	2.dd	tu-	2.D	tu-	2.A	tu-	2.a	tu-	2.dd	2.ff#
.	.	.	.	.	.	.	.	.	.	1d	.	.	.	.	.	.	.	.	.	.	.	.	.	.	.
.	4DD	4D	di-	4d	di-	4f	di-	4dd	di-	.	.	4f	4DD	4a	di-	4dd	di-	4D	di-	4A	di-	4a	di-	4dd	4ff
2DD	2DD	2D	nem	2B	nem	2f	nem	2dd	nem	.	.	2d	2DD	2a	nem	2dd	nem	2D	nem	2d	nem	2a	nem	2dd	2ff
=60	=60	=60	=60	=60	=60	=60	=60	=60	=60	=60	=60	=60	=60	=60	=60	=60	=60	=60	=60	=60	=60	=60	=60	=60	=60
1.GG	1GG	1G	e-	1B	e-	1g	e-	1dd	e-	1B	.	1d	1GG	1b	e-	1dd	e-	1GG	e-	1d	e-	1g	e-	1dd	1gg
.	2GG	2G	ius	2B	ius	2g	ius	2b	ius	2B	.	2g	2GG	2b	ius	2dd	ius	2GG	ius	2B	ius	2g	ius	2dd	2gg
=61	=61	=61	=61	=61	=61	=61	=61	=61	=61	=61	=61	=61	=61	=61	=61	=61	=61	=61	=61	=61	=61	=61	=61	=61	=61
1.EE	1.EE	1.E	tu	1e	tu	1.g	tu	1.b	tu	1.B	.	1.g	1.EE	1b	tu	1.g	tu	1.EE	tu	1.B	tu	1g	tu	4ee	4gg
.	.	.	.	.	.	.	.	.	.	.	.	.	.	.	.	.	.	.	.	.	.	.	.	4dd	4ff#
.	.	.	.	.	.	.	.	.	.	.	.	.	.	.	.	.	.	.	.	.	.	.	.	4ee	4gg
.	.	.	.	.	.	.	.	.	.	.	.	.	.	.	.	.	.	.	.	.	.	.	.	4ff#	4aa
.	.	.	.	[2B	fun	.	.	.	.	.	.	.	.	[2g	fun	.	.	.	.	.	.	[2e	fun	2gg	2bb
=62	=62	=62	=62	=62	=62	=62	=62	=62	=62	=62	=62	=62	=62	=62	=62	=62	=62	=62	=62	=62	=62	=62	=62	=62	=62
2GG	2GG	2GG	fun-	2B]	.	2g	fun-	2ee	fun-	2B	.	2B	2GG	2g]	.	2b	fun-	2GG	fun-	2B	fun-	2e]	.	1ee	2gg
1BB	1BB	1BB	das-	1B	das-	1f#	das-	(>2.ee	das	1B	.	2f#	1BB	(<4d#	das	1b	das-	1BB	das-	1B	das-	1f#	das-	.	1ff#
.	.	.	.	.	.	.	.	.	.	.	.	.	.	4e	.	.	.	.	.	.	.	.	.	.	.
.	.	.	.	.	.	.	.	.	.	.	.	2B	.	2f#)	.	.	.	.	.	.	.	.	.	2dd#	.
.	.	.	.	.	.	.	.	4dd#)	.	.	.	.	.	.	.	.	.	.	.	.	.	.	.	.	.
=63	=63	=63	=63	=63	=63	=63	=63	=63	=63	=63	=63	=63	=63	=63	=63	=63	=63	=63	=63	=63	=63	=63	=63	=63	=63
1.EE	1.EE	1.EE	ti:	1.B	ti:	1.e	ti:	1.ee	ti:	1.B	.	2B	1.EE	1.b	ti:	1.g#	ti:	1.EE	ti:	1.B	ti:	1.g#	ti:	1.ee	1.ee
.	.	.	.	.	.	.	.	.	.	.	.	1e	.	.	.	.	.	.	.	.	.	.	.	.	.
!!LO:LB
=64	=64	=64	=64	=64	=64	=64	=64	=64	=64	=64	=64	=64	=64	=64	=64	=64	=64	=64	=64	=64	=64	=64	=64	=64	=64
!!Error: measure 64, staff 2 is underfilled: adding token 2ryy at end of measure to complete its duration.
1.E	1E	1.r	.	1.r	.	1.r	.	1.r	.	1B	.	1e	1E	1b	a-	1ee	a-	1E	a-	1G#	a-	1e	a-	1r	1.r
.	2E	.	.	.	.	.	.	.	.	2E	.	2e	2E	2g#	qui-	2b	qui-	2E	qui-	2B	qui-	2e	qui-	2ryy	.
=65	=65	=65	=65	=65	=65	=65	=65	=65	=65	=65	=65	=65	=65	=65	=65	=65	=65	=65	=65	=65	=65	=65	=65	=65	=65
1.AA	1AA	1AA	a-	1c#	a-	1a	a-	1ee	a-	2E	.	2e	1AA	2a	lo-	2cc#	lo-	2A	lo-	2A	lo-	2e	lo-	1ee	1aa
.	.	.	.	.	.	.	.	.	.	2e	.	2a	.	2a	nem	2cc	nem	2A	nem	2A	nem	2e	nem	.	.
.	2AA	2AA	qui-	2e	qui-	2a	qui-	2cc#	qui-	2A	.	2a	2AA	2a	et	2cc	et	2A	et	2A	et	2a	et	2ee	2ee
=66	=66	=66	=66	=66	=66	=66	=66	=66	=66	=66	=66	=66	=66	=66	=66	=66	=66	=66	=66	=66	=66	=66	=66	=66	=66
1.D	1.D	2D	lo-	2d	lo-	2f#	lo-	2dd	lo-	2A	.	2a	1.D	(<4f#	ma	(>4dd	ma	1D	ma-	(<4A	ma	1.a	ma-	2dd	2ff#
.	.	.	.	.	.	.	.	.	.	.	.	.	.	4e	.	4cc	.	.	.	4G	.	.	.	.	.
.	.	2D	nem	2A	nem	2f	nem	2dd	nem	2A	.	2d	.	4f	.	4dd	.	.	.	4F#	.	.	.	2dd	2ff
.	.	.	.	.	.	.	.	.	.	.	.	.	.	4g	.	4ee	.	.	.	4E	.	.	.	.	.
.	.	2D	et	2A	et	2f	et	2dd	et	2A	.	2d	.	4a	.	4dd	.	2D	re,	4F	.	.	.	2dd	2ff
.	.	.	.	.	.	.	.	.	.	.	.	.	.	4f	.	4cc	.	.	.	4D	.	.	.	.	.
=67	=67	=67	=67	=67	=67	=67	=67	=67	=67	=67	=67	=67	=67	=67	=67	=67	=67	=67	=67	=67	=67	=67	=67	=67	=67
1.GG	1.GG	1GG	ma-	1B	ma-	1g	ma-	(>4dd	ma	2B	.	2d	1.GG	2b)	.	4b	.	2r	.	2G)	.	1g	re,	4dd	4gg
.	.	.	.	.	.	.	.	4cc	.	.	.	.	.	.	.	4a	.	.	.	.	.	.	.	4cc	4ff
.	.	.	.	.	.	.	.	4dd	.	2e	.	2g	.	2g	re,	4b	.	2r	.	2G	re,	.	.	4dd	4gg
.	.	.	.	.	.	.	.	4ee	.	.	.	.	.	.	.	4cc	.	.	.	.	.	.	.	4ee	4aa
.	.	2GG	re	2B	re	2g	re	4ff	.	2d	.	2g	.	2g	et	4dd	.	2G	et	2B	et	2g	et	2dd	4gg
.	.	.	.	.	.	.	.	4dd	.	.	.	.	.	.	.	4b	.	.	.	.	.	.	.	.	4ff
=68	=68	=68	=68	=68	=68	=68	=68	=68	=68	=68	=68	=68	=68	=68	=68	=68	=68	=68	=68	=68	=68	=68	=68	=68	=68
1.C	1.C	1.C	tu	1c	tu	1g	tu	.	.	2.ee)	.	1c	1.C	(<4g	ma	4cc	.	2.C	ma-	2E	ma-	2g	ma-	1.ee	4ee
.	.	.	.	.	.	.	.	.	.	.	.	.	.	4a)	.	4b)	.	.	.	.	.	.	.	.	4dd
.	.	.	.	.	.	.	.	.	.	.	.	.	.	(<4g	re	(>4cc	re	.	.	2E	re	2e	re	.	4ee
.	.	.	.	.	.	.	.	.	.	4ee	re	.	.	4fn)	.	4dd)	.	4C	re	.	.	.	.	.	4ff
.	.	.	.	2G	cre-	[2e	cre	.	.	2ee	tu	4C	.	2e	tu	2ee	tu	2C	tu	2E	tu	2e	tu	.	2gg
.	.	.	.	.	.	.	.	.	.	.	.	4D	.	.	.	.	.	.	.	.	.	.	.	.	.
=69	=69	=69	=69	=69	=69	=69	=69	=69	=69	=69	=69	=69	=69	=69	=69	=69	=69	=69	=69	=69	=69	=69	=69	=69	=69
2AA	2AA	2AA	cre-	(<2A	as	2e]	.	2cc	cre-	4E	.	2c	2AA	2a	cre-	2cc	cre-	2AA	cre-	2E	cre-	2e	cre-	2ee	1aa
.	.	.	.	.	.	.	.	.	.	4F#	.	.	.	.	.	.	.	.	.	.	.	.	.	.	.
1EE	1EE	1E	as-	1B)	.	1e	as-	1b	as-	4G#	.	1e	1EE	1b	as-	1b	as-	1E	as-	1E	as-	1e	as-	1ee	.
.	.	.	.	.	.	.	.	.	.	4A	.	.	.	.	.	.	.	.	.	.	.	.	.	.	.
.	.	.	.	.	.	.	.	.	.	4B	.	.	.	.	.	.	.	.	.	.	.	.	.	.	2gg#
.	.	.	.	.	.	.	.	.	.	4E	.	.	.	.	.	.	.	.	.	.	.	.	.	.	.
=70	=70	=70	=70	=70	=70	=70	=70	=70	=70	=70	=70	=70	=70	=70	=70	=70	=70	=70	=70	=70	=70	=70	=70	=70	=70
1.AA	1.AA	1.AA	ti:	1.c#	ti:	1.e	ti:	1.a	ti:	1.E	.	1.e	1.AA	1.cc#	ti:	1.a	ti.	1.AA	ti.	1.E	ti:	1.e	ti.	1.ee	1.aa
!!LO:LB
=71	=71	=71	=71	=71	=71	=71	=71	=71	=71	=71	=71	=71	=71	=71	=71	=71	=71	=71	=71	=71	=71	=71	=71	=71	=71
1AA	4r	4r	.	4r	.	4r	.	4r	.	4r	.	4r	4r	4r	.	4r	.	4r	.	4r	.	4r	.	4r	4r
.	8AAL	8AA	Be-	8c#	Be-	8e	Be-	8ee	Be-	8EL	.	8aL	8AAL	8a	Be-	8cc#	Be-	8AA	Be-	8A	Be-	8e	Be-	8eeL	8aaL
.	8AAJ	8AA	ne-	8c	ne-	8e	ne-	8ee	ne-	8EJ	.	8aJ	8AAJ	8a	ne-	8cc	ne-	8AA	ne-	8A	ne-	8e	ne-	8eeJ	8aaJ
.	4AA	4AA	dic-	4c	dic-	4e	dic-	4ee	dic-	4E	.	4a	4AA	4a	dic-	4cc	dic-	4AA	dic-	4A	dic-	4e	dic-	4ee	4aa
.	4AA	4AA	tud	4c	tud	4e	tud	4ee	tud	4E	.	4a	4AA	4a	tus	4cc	tus	4AA	tus	4A	tus	4e	tus	4ee	4aa
=72	=72	=72	=72	=72	=72	=72	=72	=72	=72	=72	=72	=72	=72	=72	=72	=72	=72	=72	=72	=72	=72	=72	=72	=72	=72
1D	4.D	4.D	Do-	4.d	Do-	4.f#	Do-	4.dd	Do-	4.A	.	4.f#	4.D	4.a	Do-	4.dd	Do-	4.D	Do-	4.A	Do-	4.f#	Do-	4.dd	4.aa
.	8D	8D	mi-	8d	mi-	8f	mi-	8dd	mi-	8A	.	8f	8D	8a	mi-	8dd	mi-	8D	mi-	8A	mi-	8f	mi-	8dd	8aa
.	2D	2D	nus,	2d	nus,	2f	nus,	2dd	nus,	2A	.	2f	2D	2a	nus,	2dd	nus,	2D	nus,	2A	nus,	2f	nus,	2dd	2aa
=73	=73	=73	=73	=73	=73	=73	=73	=73	=73	=73	=73	=73	=73	=73	=73	=73	=73	=73	=73	=73	=73	=73	=73	=73	=73
1D	4r	4r	.	4r	.	4r	.	4r	.	4r	.	4r	4r	4r	.	4r	.	4r	.	4r	.	4r	.	4r	4r
!	!	!	!	!	!	!	!	!	!	!	!	!	!	!	!	!	!	!	!	!	!	!	!	!	!LO:TX:a:i:t=Benedictus Dominus
.	8DDL	8D	be-	8d	be-	8f#	be-	8a	be-	8AL	.	8f#L	8DDL	8a	be-	8dd	be-	8D	be-	8d	be-	8a	be-	8ff#L	8aaL
.	8DDJ	8D	ne-	8d	ne-	8f	ne-	8a	ne-	8AJ	.	8fJ	8DDJ	8a	ne-	8dd	ne-	8D	ne-	8d	ne-	8a	ne-	8ffJ	8aaJ
.	4DD	4D	dic-	4d	dic-	4f	dic-	4a	dic-	4D	.	4f	4DD	4a	dic-	4dd	dic-	4D	dic-	4d	dic-	4a	dic-	4ff	4aa
.	4DD	4D	tus	4d	tus	4f	tus	4a	tus	4D	.	4d	4DD	4dd	tus	4dd	tus	4D	tus	4d	tus	4a	tus	4ff	4aa
=74	=74	=74	=74	=74	=74	=74	=74	=74	=74	=74	=74	=74	=74	=74	=74	=74	=74	=74	=74	=74	=74	=74	=74	=74	=74
1GG	4.GG	4.GG	Do-	4.d	Do-	4.g	Do-	4.b	Do-	4.D	.	4.d	4.GG	4.dd	Do-	4.b	Do-	4.G	Do-	4.d	Do-	4.g	Do-	4.gg	4.bb
.	8GG	8GG	mi-	8d	mi-	8g	mi-	8b	mi-	8D	.	8d	8GG	8dd	mi-	8b	mi-	8G	mi-	8d	mi-	8g	mi-	8gg	8bb
.	2GG	2GG	nus	2d	nus	2g	nus	2b	nus	2D	.	2d	2GG	2dd	nus,	2b	nus,	2G	nus	2d	nus	2g	nus	2gg	2bb
=75	=75	=75	=75	=75	=75	=75	=75	=75	=75	=75	=75	=75	=75	=75	=75	=75	=75	=75	=75	=75	=75	=75	=75	=75	=75
!LO:TX:a:iB:t=Soli	!	!	!	!	!	!	!	!	!	!	!	!	!	!	!	!	!	!	!	!	!	!	!	!	!
2.G	1r	1r	.	1r	.	1r	.	1r	.	1r	.	1r	1r	1r	.	1r	.	1r	.	4r	.	1r	.	4r	4r
.	.	.	.	.	.	.	.	.	.	.	.	.	.	.	.	.	.	.	.	2G	in	.	.	8bL	2gg
.	.	.	.	.	.	.	.	.	.	.	.	.	.	.	.	.	.	.	.	.	.	.	.	8ccJ	.
.	.	.	.	.	.	.	.	.	.	.	.	.	.	.	.	.	.	.	.	.	.	.	.	8ddL	.
.	.	.	.	.	.	.	.	.	.	.	.	.	.	.	.	.	.	.	.	.	.	.	.	16ee	.
.	.	.	.	.	.	.	.	.	.	.	.	.	.	.	.	.	.	.	.	.	.	.	.	16ffJ	.
4B	.	.	.	.	.	.	.	.	.	.	.	.	.	.	.	.	.	.	.	4B	ae-	.	.	8eeL	4ff
.	.	.	.	.	.	.	.	.	.	.	.	.	.	.	.	.	.	.	.	.	.	.	.	8ddJ	.
!!LO:LB
=76	=76	=76	=76	=76	=76	=76	=76	=76	=76	=76	=76	=76	=76	=76	=76	=76	=76	=76	=76	=76	=76	=76	=76	=76	=76
4c	4r	4r	.	4r	.	4r	.	4r	.	4r	.	4r	4r	4r	.	4r	.	4r	.	2c	ter-	4r	.	4.cc	4.ee
2C	2C	2C	in	2c	in	2g	in	2ee	in	2c	.	2e	2C	2g	in	2cc	in	2C	in	.	.	2g	in	.	.
.	.	.	.	.	.	.	.	.	.	.	.	.	.	.	.	.	.	.	.	.	.	.	.	8dd	8ff
.	.	.	.	.	.	.	.	.	.	.	.	.	.	.	.	.	.	.	.	2c	num,	.	.	4ee	[2gg
4E	4E	4E	ae-	4c	ae-	4e	ae-	4cc	ae-	4G	.	4g	4E	4g	ae-	4cc	ae-	4E	ae-	.	.	4e	ae-	8ddL	.
.	.	.	.	.	.	.	.	.	.	.	.	.	.	.	.	.	.	.	.	.	.	.	.	8ccJ	.
=77	=77	=77	=77	=77	=77	=77	=77	=77	=77	=77	=77	=77	=77	=77	=77	=77	=77	=77	=77	=77	=77	=77	=77	=77	=77
1G	1G	1G	ter-	(>4d	ter	(<4d	ter	(>4b	ter	4.G	.	2.g	1G	1g	ter-	1dd	ter-	1G	ter-	1r	.	(<4d	ter	4b	4gg]
.	.	.	.	4e	.	4c	.	2cc	.	.	.	.	.	.	.	.	.	.	.	.	.	4c	.	2cc	8ffL
.	.	.	.	.	.	.	.	.	.	8A	.	.	.	.	.	.	.	.	.	.	.	.	.	.	8eeJ
.	.	.	.	2d)	.	2d)	.	.	.	8BL	.	.	.	.	.	.	.	.	.	.	.	2d)	.	.	4dd
.	.	.	.	.	.	.	.	.	.	8c	.	.	.	.	.	.	.	.	.	.	.	.	.	.	.
.	.	.	.	.	.	.	.	4b)	.	8d	.	4G	.	.	.	.	.	.	.	.	.	.	.	4b	4gg
.	.	.	.	.	.	.	.	.	.	8BJ	.	.	.	.	.	.	.	.	.	.	.	.	.	.	.
=78	=78	=78	=78	=78	=78	=78	=78	=78	=78	=78	=78	=78	=78	=78	=78	=78	=78	=78	=78	=78	=78	=78	=78	=78	=78
1C	4C	1C	num,	1c	num,	1e	num,	1cc	num,	4G	.	4c	4C	1g	num,	1cc	num,	1C	num,	4r	.	1e	num,	1cc	1gg
.	2C	.	.	.	.	.	.	.	.	2G	.	2e	2C	.	.	.	.	.	.	2E	in	.	.	.	.
.	4C	.	.	.	.	.	.	.	.	4c	.	4e	4C	.	.	.	.	.	.	4G	ae-	.	.	.	.
=79	=79	=79	=79	=79	=79	=79	=79	=79	=79	=79	=79	=79	=79	=79	=79	=79	=79	=79	=79	=79	=79	=79	=79	=79	=79
4AA	4AA	4r	.	4r	.	4r	.	4r	.	4c	.	1e	4AA	4r	.	4r	.	4r	.	2A	ter-	4r	.	4r	4r
2AA	2AA	2AA	in	2c	in	2a	in	2ee	in	4A	.	.	2AA	2a	in	2ee	in	2AA	in	.	.	2e	in	2aa	2ccc
.	.	.	.	.	.	.	.	.	.	4E	.	.	.	.	.	.	.	.	.	2A	num,	.	.	.	.
4C	4C	4C	ae-	4A	ae-	4e	ae-	4cc	ae-	4E	.	.	4C	4e	ae-	4ee	ae-	4C	ae-	.	.	4e	ae-	4aa	4ccc
=80	=80	=80	=80	=80	=80	=80	=80	=80	=80	=80	=80	=80	=80	=80	=80	=80	=80	=80	=80	=80	=80	=80	=80	=80	=80
1E	1E	1E	ter-	(<4G	ter	1e	ter-	(>4b	ter	8EL	.	1e	1E	(<4g	ter	1ee	ter-	1E	ter-	4B	in	1e	ter-	8ggL	4bb
.	.	.	.	.	.	.	.	.	.	8F	.	.	.	.	.	.	.	.	.	.	.	.	.	8ff	.
.	.	.	.	2A	.	.	.	4a	.	8G	.	.	.	2a	.	.	.	.	.	4c	ae-	.	.	8ee	4aa
.	.	.	.	.	.	.	.	.	.	8AJ	.	.	.	.	.	.	.	.	.	.	.	.	.	8ffJ	.
.	.	.	.	.	.	.	.	2b)	.	8G#L	.	.	.	.	.	.	.	.	.	2B	ter-	.	.	4ee	2bb
.	.	.	.	.	.	.	.	.	.	8A	.	.	.	.	.	.	.	.	.	.	.	.	.	.	.
.	.	.	.	4G#)	.	.	.	.	.	8B	.	.	.	4g#)	.	.	.	.	.	.	.	.	.	4ee	.
.	.	.	.	.	.	.	.	.	.	8EJ	.	.	.	.	.	.	.	.	.	.	.	.	.	.	.
=81	=81	=81	=81	=81	=81	=81	=81	=81	=81	=81	=81	=81	=81	=81	=81	=81	=81	=81	=81	=81	=81	=81	=81	=81	=81
1AA	1AA	1AA	num,	1A	num,	1c#	num,	1a	num,	1A	.	1e	1AA	1a	num,	1ee	num,	1AA	num,	1c#	num,	1e	num,	1ee	1aa
!!LO:LB
=82	=82	=82	=82	=82	=82	=82	=82	=82	=82	=82	=82	=82	=82	=82	=82	=82	=82	=82	=82	=82	=82	=82	=82	=82	=82
1AA	4r	4r	.	4r	.	4r	.	4r	.	4r	.	4r	4r	4r	.	4r	.	4r	.	4r	.	4r	.	4r	4r
.	8AA	8AA	be-	8c#	be-	8e	be-	8ee	be-	8EL	.	8aL	8AAL	8a	be-	8cc#	be-	8AA	be-	8A	be-	8e	be-	8eeL	8aaL
.	8AA	8AA	ne-	8c	ne-	8e	ne-	8ee	ne-	8EJ	.	8aJ	8AAJ	8a	ne-	8cc	ne-	8AA	ne-	8A	ne-	8e	ne-	8eeJ	8aaJ
.	4AA	4AA	dic-	4c	dic-	4e	dic-	4ee	dic-	4E	.	4a	4AA	4a	dic-	4cc	dic-	4AA	dic-	4A	dic-	4e	dic-	4ee	4aa
.	4AA	4AA	tus	4c	tus	4e	tus	4ee	tus	4A	.	4a	4AA	4a	tus	4cc	tus	4AA	tus	4A	tus	4e	tus	4ee	4aa
=83	=83	=83	=83	=83	=83	=83	=83	=83	=83	=83	=83	=83	=83	=83	=83	=83	=83	=83	=83	=83	=83	=83	=83	=83	=83
1D	4.D	4.D	Do-	4.d	Do-	4.f#	Do-	4.dd	Do-	4.A	.	4.f#	4.D	4.a	Do-	4.dd	Do-	4.D	Do-	4.A	Do-	4.f#	Do-	4.dd	4.aa
.	8D	8D	mi-	8d	mi-	8f	mi-	8dd	mi-	8A	.	8f	8D	8a	mi-	8dd	mi-	8D	mi-	8A	mi-	8f	mi-	8dd	8aa
.	2D	2D	nus,	2d	nus,	2f	nus,	2dd	nus,	2A	.	2f	2D	2a	nus,	2dd	nus,	2D	nus,	2A	nus,	2f	nus,	2dd	2aa
=84	=84	=84	=84	=84	=84	=84	=84	=84	=84	=84	=84	=84	=84	=84	=84	=84	=84	=84	=84	=84	=84	=84	=84	=84	=84
1D	4r	4r	.	4r	.	4r	.	4r	.	4r	.	4r	4r	4r	.	4r	.	4r	.	4r	.	4r	.	4r	4r
.	8DD	8D	be-	8d	be-	8f#	be-	8a	be-	8AL	.	8f#L	8DDL	8dd	be-	8dd	be-	8D	be-	8d	be-	8a	be-	8ff#L	8aaL
.	8DD	8D	ne-	8d	ne-	8f	ne-	8a	ne-	8AJ	.	8fJ	8DDJ	8dd	ne-	8dd	ne-	8D	ne-	8d	ne-	8a	ne-	8ffJ	8aaJ
.	4DD	4D	dic-	4d	dic-	4f	dic-	4a	dic-	4D	.	4f	4DD	4dd	dic-	4dd	dic-	4D	dic-	4d	dic-	4a	dic-	4ff	4aa
.	4DD	4D	tus	4d	tus	4f	tus	4a	tus	4D	.	4d	4DD	4dd	tus	4dd	tus	4D	tus	4d	tus	4a	tus	4ff	4aa
=85	=85	=85	=85	=85	=85	=85	=85	=85	=85	=85	=85	=85	=85	=85	=85	=85	=85	=85	=85	=85	=85	=85	=85	=85	=85
1GG	4.GG	4.GG	Do-	4.d	Do-	4.g	Do-	4.b	Do-	4.D	.	4.d	4.GG	4.b	Do-	4.b	Do-	4.G	Do-	4.d	Do-	4.g	Do-	4.gg	4.bb
.	8GG	8GG	mi-	8d	mi-	8g	mi-	8b	mi-	8D	.	8d	8GG	8b	mi-	8b	mi-	8G	mi-	8d	mi-	8g	mi-	8gg	8bb
.	2GG	2GG	nus	2d	nus	2g	nus	2b	nus	2D	.	2d	2GG	2b	nus	2b	nus	2G	nus	2d	nus	2g	nus	2gg	2bb
=86	=86	=86	=86	=86	=86	=86	=86	=86	=86	=86	=86	=86	=86	=86	=86	=86	=86	=86	=86	=86	=86	=86	=86	=86	=86
!LO:TX:a:iB:t=Soli	!	!	!	!	!	!	!	!	!	!	!	!	!	!	!	!	!	!	!	!	!	!	!	!	!
2.G	1r	1r	.	1r	.	1r	.	1r	.	1r	.	1r	1r	1r	.	1r	.	1r	.	4r	.	1r	.	4r	4r
.	.	.	.	.	.	.	.	.	.	.	.	.	.	.	.	.	.	.	.	2G	in	.	.	8bL	2gg
.	.	.	.	.	.	.	.	.	.	.	.	.	.	.	.	.	.	.	.	.	.	.	.	8ccJ	.
.	.	.	.	.	.	.	.	.	.	.	.	.	.	.	.	.	.	.	.	.	.	.	.	8ddL	.
.	.	.	.	.	.	.	.	.	.	.	.	.	.	.	.	.	.	.	.	.	.	.	.	16ee	.
.	.	.	.	.	.	.	.	.	.	.	.	.	.	.	.	.	.	.	.	.	.	.	.	16ffJ	.
4B	.	.	.	.	.	.	.	.	.	.	.	.	.	.	.	.	.	.	.	4B	ae-	.	.	8eeL	4ff
.	.	.	.	.	.	.	.	.	.	.	.	.	.	.	.	.	.	.	.	.	.	.	.	8ddJ	.
!!LO:LB
=87	=87	=87	=87	=87	=87	=87	=87	=87	=87	=87	=87	=87	=87	=87	=87	=87	=87	=87	=87	=87	=87	=87	=87	=87	=87
4C	4r	4r	.	4r	.	4r	.	4r	.	4r	.	4r	4r	4r	.	4r	.	4r	.	2c	ter-	4r	.	4.cc	4.ee
2C	2C	2C	in	2G	in	2e	in	2cc	in	2c	.	2g	2C	2cc	in	2ee	in	2C	in	.	.	2g	in	.	.
.	.	.	.	.	.	.	.	.	.	.	.	.	.	.	.	.	.	.	.	.	.	.	.	8dd	8ff
.	.	.	.	.	.	.	.	.	.	.	.	.	.	.	.	.	.	.	.	2c	num,	.	.	2ee	2gg
4E	4E	4E	ae-	4c	ae-	4e	ae-	4g	ae-	4c	.	4g	4E	4cc	ae-	4cc	ae-	4E	ae-	.	.	4e	ae-	.	.
=88	=88	=88	=88	=88	=88	=88	=88	=88	=88	=88	=88	=88	=88	=88	=88	=88	=88	=88	=88	=88	=88	=88	=88	=88	=88
4F	4F	2F	ter-	2A	ter-	2c	ter-	2a	ter-	4c	.	4f	4F	2cc	ter-	2a	ter-	2F	ter-	4r	.	2a	ter-	1cc	1aa
2FF	2FF	.	.	.	.	.	.	.	.	2c	.	2f	2FF	.	.	.	.	.	.	2A	in	.	.	.	.
.	.	2F	num,	2A	num,	2c	num,	2a	num,	.	.	.	.	2cc	num,	2a	num,	2F	num,	.	.	2f	num,	.	.
4FF	4FF	.	.	.	.	.	.	.	.	4A	.	4f	4FF	.	.	.	.	.	.	4c	ae-	.	.	.	.
=89	=89	=89	=89	=89	=89	=89	=89	=89	=89	=89	=89	=89	=89	=89	=89	=89	=89	=89	=89	=89	=89	=89	=89	=89	=89
4DD	4DD	4r	.	4r	.	4r	.	4r	.	2A	.	2f	4DD	4r	.	4r	.	4r	.	2d	ter-	4r	.	4r	4r
2DD	2DD	2D	in	2A	in	2f	in	2dd	in	.	.	.	2DD	2dd	in	2a	in	2D	in	.	.	2a	in	2ff	2aa
.	.	.	.	.	.	.	.	.	.	2A	.	2a	.	.	.	.	.	.	.	2d	num,	.	.	.	.
4FF	4FF	4F	ae-	4A	ae-	4f	ae-	(>4dd	ae-	.	.	.	4FF	4a	ae-	4a	ae-	4F	ae-	.	.	4f	ae-	4dd	4aa
=90	=90	=90	=90	=90	=90	=90	=90	=90	=90	=90	=90	=90	=90	=90	=90	=90	=90	=90	=90	=90	=90	=90	=90	=90	=90
1AA	1AA	1A	ter	1A	ter	2e	ter	2cc#	ter	2.A	.	1a	1AA	1a	ter	2a	ter	1A	ter	2c#	in	4e	ter	2ee	2aa
.	.	.	.	.	.	.	.	.	.	.	.	.	.	.	.	.	.	.	.	.	.	8fL	.	.	.
.	.	.	.	.	.	.	.	.	.	.	.	.	.	.	.	.	.	.	.	.	.	8gJ	.	.	.
.	.	.	.	.	.	4f	.	2dd	.	.	.	.	.	.	.	2dd	.	.	.	2d	ae-	8fL	.	2ff	2aa
.	.	.	.	.	.	.	.	.	.	.	.	.	.	.	.	.	.	.	.	.	.	8gJ	.	.	.
.	.	.	.	.	.	4g	.	.	.	4B	.	.	.	.	.	.	.	.	.	.	.	4a	.	.	.
=91	=91	=91	=91	=91	=91	=91	=91	=91	=91	=91	=91	=91	=91	=91	=91	=91	=91	=91	=91	=91	=91	=91	=91	=91	=91
1AA	1AA	2A	.	1A	.	1a	.	2dd	.	4c#	.	2a	1AA	1a	.	2dd	.	1A	.	1e	ter-	4a	.	2ee	2.aa
.	.	.	.	.	.	.	.	.	.	4d	.	.	.	.	.	.	.	.	.	.	.	8gL	.	.	.
.	.	.	.	.	.	.	.	.	.	.	.	.	.	.	.	.	.	.	.	.	.	8fJ	.	.	.
.	.	2AA	.	.	.	.	.	2cc#)	.	4e	.	2a	.	.	.	2cc#	.	.	.	.	.	2e	.	4.aa	.
.	.	.	.	.	.	.	.	.	.	4A	.	.	.	.	.	.	.	.	.	.	.	.	.	.	4aa
.	.	.	.	.	.	.	.	.	.	.	.	.	.	.	.	.	.	.	.	.	.	.	.	8gg	.
=92	=92	=92	=92	=92	=92	=92	=92	=92	=92	=92	=92	=92	=92	=92	=92	=92	=92	=92	=92	=92	=92	=92	=92	=92	=92
1DD	1DD	1D	num.	1A	num.	1f#	num.	1dd	num.	1A	.	1a	1DD	1a	num.	1dd	num.	1D	num.	1d	num.	1f#	num.	1ff#	1aa
!!LO:LB
=93	=93	=93	=93	=93	=93	=93	=93	=93	=93	=93	=93	=93	=93	=93	=93	=93	=93	=93	=93	=93	=93	=93	=93	=93	=93
2D	2D	1r	.	1r	.	1r	.	1r	.	2d	.	16fL	2D	1r	.	1r	.	(>16AL	A	1r	.	1r	.	1r	1r
.	.	.	.	.	.	.	.	.	.	.	.	16e	.	.	.	.	.	16G	.	.	.	.	.	.	.
.	.	.	.	.	.	.	.	.	.	.	.	16f	.	.	.	.	.	16A	.	.	.	.	.	.	.
.	.	.	.	.	.	.	.	.	.	.	.	16eJ	.	.	.	.	.	16GJ	.	.	.	.	.	.	.
.	.	.	.	.	.	.	.	.	.	.	.	16dL	.	.	.	.	.	16FL	.	.	.	.	.	.	.
.	.	.	.	.	.	.	.	.	.	.	.	16e	.	.	.	.	.	16G	.	.	.	.	.	.	.
.	.	.	.	.	.	.	.	.	.	.	.	16f	.	.	.	.	.	16A	.	.	.	.	.	.	.
.	.	.	.	.	.	.	.	.	.	.	.	16dJ	.	.	.	.	.	16FJ	.	.	.	.	.	.	.
4GG	4GG	.	.	.	.	.	.	.	.	4B	.	16eL	4GG	.	.	.	.	16GL	.	.	.	.	.	.	.
.	.	.	.	.	.	.	.	.	.	.	.	16d	.	.	.	.	.	16F	.	.	.	.	.	.	.
.	.	.	.	.	.	.	.	.	.	.	.	16e	.	.	.	.	.	16G	.	.	.	.	.	.	.
.	.	.	.	.	.	.	.	.	.	.	.	16dJ	.	.	.	.	.	16FJ	.	.	.	.	.	.	.
4AA	4AA	.	.	.	.	.	.	.	.	4A	.	16c#L	4AA	.	.	.	.	16EL	.	.	.	.	.	.	.
.	.	.	.	.	.	.	.	.	.	.	.	16d	.	.	.	.	.	16F	.	.	.	.	.	.	.
.	.	.	.	.	.	.	.	.	.	.	.	16e	.	.	.	.	.	16G	.	.	.	.	.	.	.
.	.	.	.	.	.	.	.	.	.	.	.	16cJ	.	.	.	.	.	16EJ	.	.	.	.	.	.	.
=94	=94	=94	=94	=94	=94	=94	=94	=94	=94	=94	=94	=94	=94	=94	=94	=94	=94	=94	=94	=94	=94	=94	=94	=94	=94
2D	4DD	1r	.	1r	.	1r	.	1r	.	4A	.	4d	4DD	1r	.	1r	.	8F)	.	2r	.	1r	.	16ffL	16aaL
.	.	.	.	.	.	.	.	.	.	.	.	.	.	.	.	.	.	.	.	.	.	.	.	16ee	16gg
.	.	.	.	.	.	.	.	.	.	.	.	.	.	.	.	.	.	8D	men,	.	.	.	.	16ff	16aa
.	.	.	.	.	.	.	.	.	.	.	.	.	.	.	.	.	.	.	.	.	.	.	.	16eeJ	16ggJ
.	4DD	.	.	.	.	.	.	.	.	4A	.	4d	4DD	.	.	.	.	4r	.	.	.	.	.	16ddL	16ffL
.	.	.	.	.	.	.	.	.	.	.	.	.	.	.	.	.	.	.	.	.	.	.	.	16ee	16gg
.	.	.	.	.	.	.	.	.	.	.	.	.	.	.	.	.	.	.	.	.	.	.	.	16ff	16aa
.	.	.	.	.	.	.	.	.	.	.	.	.	.	.	.	.	.	.	.	.	.	.	.	16ddJ	16ffJ
4G	2r	.	.	.	.	.	.	.	.	2r	.	2r	2r	.	.	.	.	2r	.	4e	A-	.	.	16eeL	16ggL
.	.	.	.	.	.	.	.	.	.	.	.	.	.	.	.	.	.	.	.	.	.	.	.	16dd	16ff
.	.	.	.	.	.	.	.	.	.	.	.	.	.	.	.	.	.	.	.	.	.	.	.	16ee	16gg
.	.	.	.	.	.	.	.	.	.	.	.	.	.	.	.	.	.	.	.	.	.	.	.	16ddJ	16ffJ
4A	.	.	.	.	.	.	.	.	.	.	.	.	.	.	.	.	.	.	.	4e	men,	.	.	16cc#L	16eeL
.	.	.	.	.	.	.	.	.	.	.	.	.	.	.	.	.	.	.	.	.	.	.	.	16dd	16ff
.	.	.	.	.	.	.	.	.	.	.	.	.	.	.	.	.	.	.	.	.	.	.	.	16ee	16gg
.	.	.	.	.	.	.	.	.	.	.	.	.	.	.	.	.	.	.	.	.	.	.	.	16ccJ	16eeJ
=95	=95	=95	=95	=95	=95	=95	=95	=95	=95	=95	=95	=95	=95	=95	=95	=95	=95	=95	=95	=95	=95	=95	=95	=95	=95
2D	2D	1r	.	1r	.	1r	.	1r	.	2d	.	16fL	2D	2r	.	1r	.	4D	A-	2r	.	1r	.	8ddL	8ffL
.	.	.	.	.	.	.	.	.	.	.	.	16e	.	.	.	.	.	.	.	.	.	.	.	.	.
.	.	.	.	.	.	.	.	.	.	.	.	16f	.	.	.	.	.	.	.	.	.	.	.	8aJ	8ddJ
.	.	.	.	.	.	.	.	.	.	.	.	16eJ	.	.	.	.	.	.	.	.	.	.	.	.	.
.	.	.	.	.	.	.	.	.	.	.	.	16dL	.	.	.	.	.	4D	men,	.	.	.	.	4r	4r
.	.	.	.	.	.	.	.	.	.	.	.	16e	.	.	.	.	.	.	.	.	.	.	.	.	.
.	.	.	.	.	.	.	.	.	.	.	.	16f	.	.	.	.	.	.	.	.	.	.	.	.	.
.	.	.	.	.	.	.	.	.	.	.	.	16dJ	.	.	.	.	.	.	.	.	.	.	.	.	.
4GG	4GG	.	.	.	.	.	.	.	.	8d	.	4g	4GG	(<16b-L	A	.	.	2r	.	4G	A-	.	.	2r	2r
.	.	.	.	.	.	.	.	.	.	.	.	.	.	16a	.	.	.	.	.	.	.	.	.	.	.
.	.	.	.	.	.	.	.	.	.	4G	.	.	.	16b	.	.	.	.	.	.	.	.	.	.	.
.	.	.	.	.	.	.	.	.	.	.	.	.	.	16aJ	.	.	.	.	.	.	.	.	.	.	.
4C	4C	.	.	.	.	.	.	.	.	.	.	4g	4C	16gL	.	.	.	.	.	4G	men,	.	.	.	.
.	.	.	.	.	.	.	.	.	.	.	.	.	.	16a	.	.	.	.	.	.	.	.	.	.	.
.	.	.	.	.	.	.	.	.	.	8c	.	.	.	16b	.	.	.	.	.	.	.	.	.	.	.
.	.	.	.	.	.	.	.	.	.	.	.	.	.	16gJ)	.	.	.	.	.	.	.	.	.	.	.
!!LO:LB
=96	=96	=96	=96	=96	=96	=96	=96	=96	=96	=96	=96	=96	=96	=96	=96	=96	=96	=96	=96	=96	=96	=96	=96	=96	=96
2FF	4FF	1r	.	1r	.	1r	.	1r	.	4c	.	4f	4FF	(<16aL	.	(>16ccL	A	4F	A-	4c	A-	1r	.	4ff	4aa
.	.	.	.	.	.	.	.	.	.	.	.	.	.	16g	.	16b-	.	.	.	.	.	.	.	.	.
.	.	.	.	.	.	.	.	.	.	.	.	.	.	16a	.	16cc	.	.	.	.	.	.	.	.	.
.	.	.	.	.	.	.	.	.	.	.	.	.	.	16gJ	.	16bJ	.	.	.	.	.	.	.	.	.
.	4FF	.	.	.	.	.	.	.	.	4c	.	4f	4FF	16fL	.	16aL	.	4F	men,	4c	men,	.	.	4ff	4aa
.	.	.	.	.	.	.	.	.	.	.	.	.	.	16g	.	16b	.	.	.	.	.	.	.	.	.
.	.	.	.	.	.	.	.	.	.	.	.	.	.	16a	.	16cc	.	.	.	.	.	.	.	.	.
.	.	.	.	.	.	.	.	.	.	.	.	.	.	16fJ	.	16aJ	.	.	.	.	.	.	.	.	.
4BB-	4BB-	.	.	.	.	.	.	.	.	8B-L	.	8d	4BB-	4g)	.	16bL	.	2r	.	2r	.	.	.	2r	16ggL
.	.	.	.	.	.	.	.	.	.	.	.	.	.	.	.	16a	.	.	.	.	.	.	.	.	16ff
.	.	.	.	.	.	.	.	.	.	8d	.	4G	.	.	.	16b	.	.	.	.	.	.	.	.	16gg
.	.	.	.	.	.	.	.	.	.	.	.	.	.	.	.	16aJ	.	.	.	.	.	.	.	.	16ffJ
4C	4C	.	.	.	.	.	.	.	.	8G	.	.	4C	4g	men,	16gL	.	.	.	.	.	.	.	.	16eeL
.	.	.	.	.	.	.	.	.	.	.	.	.	.	.	.	16a	.	.	.	.	.	.	.	.	16ff
.	.	.	.	.	.	.	.	.	.	8EJ	.	8c	.	.	.	16b	.	.	.	.	.	.	.	.	16gg
.	.	.	.	.	.	.	.	.	.	.	.	.	.	.	.	16gJ	.	.	.	.	.	.	.	.	16eeJ
=97	=97	=97	=97	=97	=97	=97	=97	=97	=97	=97	=97	=97	=97	=97	=97	=97	=97	=97	=97	=97	=97	=97	=97	=97	=97
2FF	4FF	1r	.	1r	.	1r	.	1r	.	4A	.	4c	4FF	(>16ccL	A	8a)	.	1r	.	4f	A-	16aL	.	16aaL	16ffL
.	.	.	.	.	.	.	.	.	.	.	.	.	.	16b-	.	.	.	.	.	.	.	16g	.	16gg	16ee
.	.	.	.	.	.	.	.	.	.	.	.	.	.	16cc	.	8f	men,	.	.	.	.	16a	.	16aa	16ff
.	.	.	.	.	.	.	.	.	.	.	.	.	.	16bJ	.	.	.	.	.	.	.	16g	.	16ggJ	16eeJ
.	4FF	.	.	.	.	.	.	.	.	4A	.	4d	4FF	16aL	.	4r	.	.	.	4f	men,	16f	.	16ffL	16ddL
.	.	.	.	.	.	.	.	.	.	.	.	.	.	16b	.	.	.	.	.	.	.	16g	.	16gg	16ee
.	.	.	.	.	.	.	.	.	.	.	.	.	.	16cc	.	.	.	.	.	.	.	16a	.	16aa	16ff
.	.	.	.	.	.	.	.	.	.	.	.	.	.	16aJ	.	.	.	.	.	.	.	16fJ	.	16ffJ	16ddJ
8BB-L	2r	.	.	.	.	.	.	.	.	2r	.	2r	2r	16bL	.	(>16ddL	A	.	.	2r	.	16gL	.	16ggL	8ddL
.	.	.	.	.	.	.	.	.	.	.	.	.	.	16a	.	16cc	.	.	.	.	.	16f	.	16ff	.
8GGJ	.	.	.	.	.	.	.	.	.	.	.	.	.	16b	.	16dd	.	.	.	.	.	16g	.	16gg	16gg
.	.	.	.	.	.	.	.	.	.	.	.	.	.	16aJ	.	16ccJ	.	.	.	.	.	16f	.	16ffJ	16aaJ
4G	.	.	.	.	.	.	.	.	.	.	.	.	.	16gL	.	16b-L	.	.	.	.	.	16e	.	16eeL	8bb-L
.	.	.	.	.	.	.	.	.	.	.	.	.	.	16a	.	16cc	.	.	.	.	.	16f	.	16ff	.
.	.	.	.	.	.	.	.	.	.	.	.	.	.	16b	.	16dd	.	.	.	.	.	16g	.	16gg	8bbJ
.	.	.	.	.	.	.	.	.	.	.	.	.	.	16gJ	.	16bJ	.	.	.	.	.	16eJ	.	16eeJ	.
=98	=98	=98	=98	=98	=98	=98	=98	=98	=98	=98	=98	=98	=98	=98	=98	=98	=98	=98	=98	=98	=98	=98	=98	=98	=98
2F	2FF	1r	.	1r	.	1r	.	1r	.	16AL	.	16fL	2FF	8a)	.	16ccL	.	(>16AL	A	2r	.	8fL	.	4ff	4aa
.	.	.	.	.	.	.	.	.	.	16B-	.	16g	.	.	.	16b-	.	16G	.	.	.	.	.	.	.
.	.	.	.	.	.	.	.	.	.	16A	.	16f	.	8f	men,	16cc	.	16A	.	.	.	8cJ	.	.	.
.	.	.	.	.	.	.	.	.	.	16BJ	.	16gJ	.	.	.	16bJ	.	16GJ	.	.	.	.	.	.	.
.	.	.	.	.	.	.	.	.	.	16cL	.	16aL	.	4r	.	16aL	.	16FL	.	.	.	4r	.	4cc	4aa
.	.	.	.	.	.	.	.	.	.	16B	.	16g	.	.	.	16b	.	16G	.	.	.	.	.	.	.
.	.	.	.	.	.	.	.	.	.	16A	.	16f	.	.	.	16cc	.	16A	.	.	.	.	.	.	.
.	.	.	.	.	.	.	.	.	.	16cJ	.	16aJ	.	.	.	16aJ	.	16FJ	.	.	.	.	.	.	.
4G	4GG	.	.	.	.	.	.	.	.	4B	.	2g	4GG	4g	A-	8b)	.	16GL	.	(<16B-L	A	4g	.	2r	2r
.	.	.	.	.	.	.	.	.	.	.	.	.	.	.	.	.	.	16F	.	16A	.	.	.	.	.
.	.	.	.	.	.	.	.	.	.	.	.	.	.	.	.	8g	men,	16G	.	16B	.	.	.	.	.
.	.	.	.	.	.	.	.	.	.	.	.	.	.	.	.	.	.	16FJ	.	16AJ	.	.	.	.	.
4C	4C	.	.	.	.	.	.	.	.	4c	.	.	4C	4g	men,	4r	.	16EL	.	16GL	.	4g	.	.	.
.	.	.	.	.	.	.	.	.	.	.	.	.	.	.	.	.	.	16F	.	16A	.	.	.	.	.
.	.	.	.	.	.	.	.	.	.	.	.	.	.	.	.	.	.	16G	.	16B	.	.	.	.	.
.	.	.	.	.	.	.	.	.	.	.	.	.	.	.	.	.	.	16EJ)	.	16GJ)	.	.	.	.	.
!!LO:LB
=99	=99	=99	=99	=99	=99	=99	=99	=99	=99	=99	=99	=99	=99	=99	=99	=99	=99	=99	=99	=99	=99	=99	=99	=99	=99
2FF	4FF	4.FF	A-	4c	A-	4.f	A-	4.a	A-	4c	.	4f	4FF	2r	.	4a	A-	4F	 -	(<16AL	.	2r	.	2r	16ffL
.	.	.	.	.	.	.	.	.	.	.	.	.	.	.	.	.	.	.	.	16G	.	.	.	.	16ee
.	.	.	.	.	.	.	.	.	.	.	.	.	.	.	.	.	.	.	.	16A	.	.	.	.	16ff
.	.	.	.	.	.	.	.	.	.	.	.	.	.	.	.	.	.	.	.	16GJ	.	.	.	.	16eeJ
.	4FF	.	.	4d	men,	.	.	.	.	4d	.	4f	4FF	.	.	4a	men,	4F	men,	16FL	.	.	.	.	16ddL
.	.	.	.	.	.	.	.	.	.	.	.	.	.	.	.	.	.	.	.	16G	.	.	.	.	16ee
.	.	8FF	men,	.	.	8f	men,	8a	men,	.	.	.	.	.	.	.	.	.	.	16A	.	.	.	.	16ff
.	.	.	.	.	.	.	.	.	.	.	.	.	.	.	.	.	.	.	.	16FJ	.	.	.	.	16ddJ
4C	4r	8C	A-	8e	A-	8g	A-	8cc	A-	4r	.	4r	4r	4g	A-	2r	.	2r	.	4G)	.	4g	A-	16ggL	16eeL
.	.	.	.	.	.	.	.	.	.	.	.	.	.	.	.	.	.	.	.	.	.	.	.	16ff	16ff
.	.	8C	men,	8e	men,	8g	men,	8cc	men,	.	.	.	.	.	.	.	.	.	.	.	.	.	.	16gg	16ee
.	.	.	.	.	.	.	.	.	.	.	.	.	.	.	.	.	.	.	.	.	.	.	.	16ffJ	16ffJ
4CC	8CCL	4r	.	4r	.	4r	.	4r	.	8cL	.	8eL	8CCL	4g	men,	.	.	.	.	4G	men,	4g	men,	16eeL	16ggL
.	.	.	.	.	.	.	.	.	.	.	.	.	.	.	.	.	.	.	.	.	.	.	.	16ff	16ff
.	8CCJ	.	.	.	.	.	.	.	.	8cJ	.	8eJ	8CCJ	.	.	.	.	.	.	.	.	.	.	16gg	16ee
.	.	.	.	.	.	.	.	.	.	.	.	.	.	.	.	.	.	.	.	.	.	.	.	16eeJ	16ggJ
=100	=100	=100	=100	=100	=100	=100	=100	=100	=100	=100	=100	=100	=100	=100	=100	=100	=100	=100	=100	=100	=100	=100	=100	=100	=100
4.FF	8FFL	4r	.	4r	.	4r	.	4r	.	8cL	.	8aL	8FFL	2r	.	(<16aL	A	4FF	a-	2r	.	4c	A-	16ffL	4ff
.	.	.	.	.	.	.	.	.	.	.	.	.	.	.	.	16g	.	.	.	.	.	.	.	16ee	.
.	8FFJ	.	.	.	.	.	.	.	.	8cJ	.	8aJ	8FFJ	.	.	16a	.	.	.	.	.	.	.	16ff	.
.	.	.	.	.	.	.	.	.	.	.	.	.	.	.	.	16gJ	.	.	.	.	.	.	.	16eeJ	.
.	4r	8D	A-	8A	A-	8f	A-	8dd	A-	4r	.	4r	4r	.	.	16fL	.	4FF	men,	.	.	4c	men,	16ddL	4ff
.	.	.	.	.	.	.	.	.	.	.	.	.	.	.	.	16g	.	.	.	.	.	.	.	16ee	.
8DD	.	8D	men,	8A	men,	8f	men,	8dd	men,	.	.	.	.	.	.	16a	.	.	.	.	.	.	.	16ff	.
.	.	.	.	.	.	.	.	.	.	.	.	.	.	.	.	16fJ	.	.	.	.	.	.	.	16ddJ	.
4GG	4r	8G	A-	8G	A-	8e	A-	8b	A-	4r	.	4r	4r	8b	A-	16gL	.	2r	.	(>16eL	A	2r	.	4ee	2r
.	.	.	.	.	.	.	.	.	.	.	.	.	.	.	.	16f	.	.	.	16d	.	.	.	.	.
.	.	8G	men,	8G	men,	8e	men,	8b	men,	.	.	.	.	8b	men,	16g	.	.	.	16e	.	.	.	.	.
.	.	.	.	.	.	.	.	.	.	.	.	.	.	.	.	16fJ	.	.	.	16c#J	.	.	.	.	.
4AA	8AAL	4r	.	4r	.	4r	.	4r	.	8eL	.	8aL	8AAL	8ee	A-	16eL	.	.	.	16dL	.	.	.	4ee	.
.	.	.	.	.	.	.	.	.	.	.	.	.	.	.	.	16f	.	.	.	16e	.	.	.	.	.
.	8AAJ	.	.	.	.	.	.	.	.	8eJ	.	8aJ	8AAJ	8ee	men,	16g	.	.	.	16c	.	.	.	.	.
.	.	.	.	.	.	.	.	.	.	.	.	.	.	.	.	16eJ	.	.	.	16dJ	.	.	.	.	.
=101	=101	=101	=101	=101	=101	=101	=101	=101	=101	=101	=101	=101	=101	=101	=101	=101	=101	=101	=101	=101	=101	=101	=101	=101	=101
!!Error: measure 101, staff 4 is underfilled: adding token 16ryy at end of measure to complete its duration.
4D	8DL	8D	A-	8d	A-	8f	A-	8a	A-	8dL	.	8aL	.	2r	.	8f)	.	8D	A-	16cnL	.	(<16fL	A	1r	1r
.	.	.	.	.	.	.	.	.	.	.	.	.	.	.	.	.	.	.	.	16d	.	16e	.	.	.
.	8D	8D	men,	8d	men,	8f	men,	8a	men,	8d	.	8a	.	.	.	8d	men,	8D	men,	16cJ	.	16f	.	.	.
.	.	.	.	.	.	.	.	.	.	.	.	.	.	.	.	.	.	.	.	16BL	.	16eJ	.	.	.
4G	8GG	8G	A-	8d	A-	8g	A-	8b	A-	8d	.	8g	.	.	.	4r	.	8G	A-	16c	.	16dL	.	.	.
.	.	.	.	.	.	.	.	.	.	.	.	.	.	.	.	.	.	.	.	16d	.	16e	.	.	.
.	8GGJ	8G	men,	8d	men,	8g	men,	8b	men,	8dJ	.	8gJ	.	.	.	.	.	8G	men,	16BJ	.	16f	.	.	.
.	.	.	.	.	.	.	.	.	.	.	.	.	.	.	.	.	.	.	.	8cL)	.	16dJ	.	.	.
2C	8CL	4r	.	4r	.	4r	.	4r	.	8cL	.	8gL	.	(>16ccL	A	2r	.	(>16GL	A	.	.	16eL	.	.	.
.	.	.	.	.	.	.	.	.	.	.	.	.	.	16b	.	.	.	16F	.	8GJ	men,	16d	.	.	.
.	8C	.	.	.	.	.	.	.	.	8c	.	8e	.	16cc	.	.	.	16G	.	.	.	16e	.	.	.
.	.	.	.	.	.	.	.	.	.	.	.	.	.	16bJ	.	.	.	16FJ	.	4r	.	16dJ	.	.	.
.	8CC	8C	A-	8c	A-	8e	A-	8cc	A-	8c	.	8e	.	16aL	.	.	.	16EL	.	.	.	16cL	.	.	.
.	.	.	.	.	.	.	.	.	.	.	.	.	.	16b	.	.	.	16F	.	.	.	16d	.	.	.
.	8CCJ	8C	men,	8c	men,	8e	men,	8cc	men,	8AJ	.	8aJ	.	16cc	.	.	.	16G	.	.	.	16e	.	.	.
.	.	.	.	.	.	.	.	.	.	.	.	.	.	16aJ)	.	.	.	16EJ)	.	16ryy	.	16cJ)	.	.	.
!!LO:LB
=102	=102	=102	=102	=102	=102	=102	=102	=102	=102	=102	=102	=102	=102	=102	=102	=102	=102	=102	=102	=102	=102	=102	=102	=102	=102
4FF	8FFL	8F	A-	8d	A-	8f	A-	8a	A-	8r	.	8aL	8FFL	(>16ddL	.	2r	.	(>16FL	.	1r	.	(<8d	.	2r	4r
.	.	.	.	.	.	.	.	.	.	.	.	.	.	16cc	.	.	.	16E	.	.	.	.	.	.	.
.	8FF	8F	men,	8d	men,	8f	men,	8a	men,	8DL	.	8a	8FF	16dd	.	.	.	16F	.	.	.	8d)	men,	.	.
.	.	.	.	.	.	.	.	.	.	.	.	.	.	16ccJ	.	.	.	16EJ	.	.	.	.	.	.	.
4GG	8GG	4r	.	4r	.	4r	.	4r	.	8G	.	8g	8GG	16bL	.	.	.	16DL	.	.	.	4r	.	.	16ggL
.	.	.	.	.	.	.	.	.	.	.	.	.	.	16cc	.	.	.	16E	.	.	.	.	.	.	16ff
.	8GGJ	.	.	.	.	.	.	.	.	8GJ	.	8gJ	8GGJ	16dd	.	.	.	16F	.	.	.	.	.	.	16gg
.	.	.	.	.	.	.	.	.	.	.	.	.	.	16bJ	.	.	.	16DJ	.	.	.	.	.	.	16ffJ
2C	8CCL	4r	.	4r	.	4r	.	4r	.	8GL	.	8gL	8CCL	4cc)	.	(>16eeL	A	8E)	.	.	.	(<16gL	A	16ccL	16eeL
.	.	.	.	.	.	.	.	.	.	.	.	.	.	.	.	16dd	.	.	.	.	.	16f	.	16dd	16ff
.	8CCJ	.	.	.	.	.	.	.	.	8GJ	.	8gJ	8CCJ	.	.	16ee	.	8C	men,	.	.	16g	.	16cc	16ee
.	.	.	.	.	.	.	.	.	.	.	.	.	.	.	.	16ddJ	.	.	.	.	.	16fJ	.	16ddJ	16ffJ
.	4r	8G	A-	8e	A-	8g	A-	8cc	A-	4r	.	4r	4r	4cc	men,	16ccL	.	8C	A-	.	.	16eL	.	16eeL	8ggL
.	.	.	.	.	.	.	.	.	.	.	.	.	.	.	.	16dd	.	.	.	.	.	16f	.	16dd	.
.	.	8G	men,	8e	men,	8g	men,	8cc	men,	.	.	.	.	.	.	16ee	.	8C	men,	.	.	16g	.	16cc	8ccJ
.	.	.	.	.	.	.	.	.	.	.	.	.	.	.	.	16ccJ	.	.	.	.	.	16eJ	.	16eeJ	.
=103	=103	=103	=103	=103	=103	=103	=103	=103	=103	=103	=103	=103	=103	=103	=103	=103	=103	=103	=103	=103	=103	=103	=103	=103	=103
4F	2r	8F	A-	8d	A-	8a	A-	8a	A-	2r	.	2r	2r	2r	.	16ddL	.	8F	A-	4r	.	16fL	.	8ddL	4aa
.	.	.	.	.	.	.	.	.	.	.	.	.	.	.	.	16cc	.	.	.	.	.	16e	.	.	.
.	.	8F	men,	8d	men,	8a	men,	8a	men,	.	.	.	.	.	.	16dd	.	8F	men,	.	.	16f	.	8dd	.
.	.	.	.	.	.	.	.	.	.	.	.	.	.	.	.	16ccJ	.	.	.	.	.	16eJ	.	.	.
4G	.	8F	A-	8d	A-	8g	A-	8b	A-	.	.	.	.	.	.	16bL	.	4r	.	8G	A-	16dL	.	8dd	8ggL
.	.	.	.	.	.	.	.	.	.	.	.	.	.	.	.	16cc	.	.	.	.	.	16e	.	.	.
.	.	8F	men,	8d	men,	8g	men,	8b	men,	.	.	.	.	.	.	16dd	.	.	.	8G	men	16f	.	8ddJ	8ggJ
.	.	.	.	.	.	.	.	.	.	.	.	.	.	.	.	16bJ	.	.	.	.	.	16dJ	.	.	.
4c	16CL	8E	A-	8c	A-	8e	A-	8cc	A-	8cL	.	8eL	8CL	(>16eeL	A	8cc)	.	(>16cL	A	8c	A-	8e)	.	4r	8ggL
.	16BB	.	.	.	.	.	.	.	.	.	.	.	.	16dd	.	.	.	16B	.	.	.	.	.	.	.
.	16C	8E	men,	8c	men,	8e	men,	8cc	men,	8c	.	8e	8C	16ee	.	8cc	men,	16c	.	8c	men,	8e	men,	.	8ggJ
.	16BBJ	.	.	.	.	.	.	.	.	.	.	.	.	16ddJ	.	.	.	16BJ	.	.	.	.	.	.	.
4A	16AAL	4r	.	4r	.	4r	.	4r	.	8f	.	8a	8AA	16ccL	.	4r	.	16AL	.	4r	.	4r	.	16ffL	16aaL
.	16BB	.	.	.	.	.	.	.	.	.	.	.	.	16dd	.	.	.	16B	.	.	.	.	.	16ee	16gg
.	16C	.	.	.	.	.	.	.	.	8fJ	.	8aJ	8AAJ	16ee	.	.	.	16c	.	.	.	.	.	16ff	16aa
.	16AAJ	.	.	.	.	.	.	.	.	.	.	.	.	16ccJ	.	.	.	16AJ	.	.	.	.	.	16eeJ	16ggJ
=104	=104	=104	=104	=104	=104	=104	=104	=104	=104	=104	=104	=104	=104	=104	=104	=104	=104	=104	=104	=104	=104	=104	=104	=104	=104
4B-	16BB-L	2r	.	2r	.	2r	.	2r	.	4f	.	4d	4BB-	16ddL	.	2r	.	16B-L	.	2r	.	8d	A-	8ddL	8ffL
.	16AA	.	.	.	.	.	.	.	.	.	.	.	.	16cc	.	.	.	16A	.	.	.	.	.	.	.
.	16BB	.	.	.	.	.	.	.	.	.	.	.	.	16dd	.	.	.	16B	.	.	.	8d	men,	8ddJ	8ffJ
.	16AAJ	.	.	.	.	.	.	.	.	.	.	.	.	16ccJ	.	.	.	16AJ	.	.	.	.	.	.	.
4G	16GGL	.	.	.	.	.	.	.	.	8B-L	.	8r	8GGL	16b-L	.	.	.	16GL	.	.	.	8g	A-	16eeL	16ggL
.	16AA	.	.	.	.	.	.	.	.	.	.	.	.	16cc	.	.	.	16A	.	.	.	.	.	16dd	16ff
.	16BB	.	.	.	.	.	.	.	.	8GJ	.	8d	8GGJ	16dd	.	.	.	16B	.	.	.	8g	men,	16ee	16gg
.	16GGJ	.	.	.	.	.	.	.	.	.	.	.	.	16bJ	.	.	.	16GJ	.	.	.	.	.	16ddJ	16ffJ
4A	4AA	(>16AL	A	(>16cL	A	4r	.	4r	.	8cL	.	8aL	4AA	8cc)	.	(>16ccL	A	16AL	.	8c	A-	2r	.	8ccL	8eeL
.	.	16G	.	16B	.	.	.	.	.	.	.	.	.	.	.	16b	.	16G	.	.	.	.	.	.	.
.	.	16A	.	16c	.	.	.	.	.	8A	.	8a	.	8cc	men,	16cc	.	16A	.	8c	men,	.	.	8ccJ	8eeJ
.	.	16GJ	.	16BJ	.	.	.	.	.	.	.	.	.	.	.	16bJ	.	16GJ	.	.	.	.	.	.	.
4F	4FF	16FL	.	16AL	.	(<16fL	A	(>16ddL	A	8d	.	8a	4FF	4r	.	16aL	.	16FL	.	8f	A-	.	.	16ddL	16ffL
.	.	16G	.	16B	.	16e	.	16cc	.	.	.	.	.	.	.	16b	.	16G	.	.	.	.	.	16cc	16ee
.	.	16A	.	16c	.	16f	.	16dd	.	8dJ	.	8aJ	.	.	.	16cc	.	16A	.	8f	men,	.	.	16dd	16ff
.	.	16FJ)	.	16AJ)	.	16eJ)	.	16ccJ)	.	.	.	.	.	.	.	16aJ)	.	16FJ)	.	.	.	.	.	16ccJ	16eeJ
!!LO:LB
=105	=105	=105	=105	=105	=105	=105	=105	=105	=105	=105	=105	=105	=105	=105	=105	=105	=105	=105	=105	=105	=105	=105	=105	=105	=105
4G	16GL	(>16GL	.	(<16BL	.	(<8d	 -	8b	 -	8r	.	8dL	8GL	8g	A-	(<16bL	.	(>8G	.	8B	A-	2r	.	8bL	8ddL
.	16F	16F	.	16A	.	.	.	.	.	.	.	.	.	.	.	16a	.	.	.	.	.	.	.	.	.
.	16G	16G	.	16B	.	8d)	men,	8b	men,	8gL	.	8d	8G	8g	men,	16b	.	8G)	men,	8B	men,	.	.	8bJ	8ddJ
.	16FJ	16FJ	.	16AJ	.	.	.	.	.	.	.	.	.	.	.	16a	.	.	.	.	.	.	.	.	.
4E	16EL	16EL	.	16GL	.	(<16eL	A	(>16ccL	A	8c	.	8g	8E	8cc	A-	16g	.	4r	.	8e	A-	.	.	16ccL	16eeL
.	16F	16F	.	16A	.	16d	.	16b	.	.	.	.	.	.	.	16a	.	.	.	.	.	.	.	16b	16dd
.	16G	16G	.	16B	.	16e	.	16cc	.	8cJ	.	8gJ	8EJ	8cc	men,	16b	.	.	.	8e	men,	.	.	16cc	16ee
.	16EJ	16EJ	.	16GJ	.	16dJ	.	16bJ	.	.	.	.	.	.	.	16gJ	.	.	.	.	.	.	.	16bJ	16ddJ
4F	16FL	8F)	.	8A)	.	16cL	.	16aL	.	8r	.	8cL	8FL	4r	.	8a)	.	(>16FL	A	8A	A-	(<16aL	A	16aL	8ccL
.	16E	.	.	.	.	16d	.	16b	.	.	.	.	.	.	.	.	.	16E	.	.	.	16g	.	16b	.
.	16F	8F	men,	8A	men,	16e	.	16cc	.	8fL	.	8c	8F	.	.	8a	men,	16F	.	8A	men,	16a	.	16cc	8cc
.	16EJ	.	.	.	.	16cJ	.	16aJ	.	.	.	.	.	.	.	.	.	16EJ	.	.	.	16gJ	.	16aJ	.
4D	16DL	4r	.	4r	.	8d)	.	8b)	.	8B	.	8f	8D	(<16gL	A	(>16ddL	A	16DL	.	8d	A-	16fL	.	8bL	8dd
.	16E	.	.	.	.	.	.	.	.	.	.	.	.	16a	.	16cc	.	16E	.	.	.	16g	.	.	.
.	16F	.	.	.	.	8d	men,	8b	men,	8BJ	.	8fJ	8DJ	16b	.	16dd	.	16F	.	8d	men,	16a	.	8bJ	8ddJ
.	16DJ	.	.	.	.	.	.	.	.	.	.	.	.	16aJ	.	16ccJ	.	16DJ	.	.	.	16fJ	.	.	.
=106	=106	=106	=106	=106	=106	=106	=106	=106	=106	=106	=106	=106	=106	=106	=106	=106	=106	=106	=106	=106	=106	=106	=106	=106	=106
4E	16EL	(>16EL	A	16GL	A	4r	.	4r	.	8r	.	8BL	8EL	8g)	.	8b)	.	16EL	.	8G	A-	16gL	.	8eeL	8ggL
.	16D	16D	.	16F	.	.	.	.	.	.	.	.	.	.	.	.	.	16D	.	.	.	16f	.	.	.
.	16E	16E	.	16G	.	.	.	.	.	8eL	.	8B	8E	8g	men,	8b	men,	16E	.	8G	men,	16g	.	8ee	8ggJ
.	16DJ	16DJ	.	16FJ	.	.	.	.	.	.	.	.	.	.	.	.	.	16DJ	.	.	.	16fJ	.	.	.
4C	16CL	16CL	.	16EL	.	(<16cL	A	(<16aL	A	8A	.	8e	8C	(<16aL	A	(>16ccL	A	16CL	.	8c	A-	16eL	.	8ee	4r
.	16D	16D	.	16F	.	16B	.	16g	.	.	.	.	.	16g	.	16b	.	16D	.	.	.	16f	.	.	.
.	16E	16E	.	16G	.	16c	.	16a	.	8AJ	.	8eJ	8CJ	16a	.	16cc	.	16E	.	8c	men,	16g	.	8eeJ	.
.	16CJ	16CJ	.	16EJ	.	16BJ	.	16gJ	.	.	.	.	.	16gJ	.	16bJ	.	16CJ	.	.	.	16eJ	.	.	.
4D	16DL	16DL	.	16FL	.	8A)	.	8f)	.	8r	.	8AL	8DL	8f)	.	8a)	.	16DL	.	(>16fL	A	4f)	.	8aaL	8ddL
.	16C	16C	.	16E	.	.	.	.	.	.	.	.	.	.	.	.	.	16C	.	16e	.	.	.	.	.
.	16D	16D	.	16F	.	8A	men,	8f	men,	8dL	.	8A	8D	8f	men,	8a	men,	16D	.	16f	.	.	.	8dd	8dd
.	16CJ	16CJ	.	16E	.	.	.	.	.	.	.	.	.	.	.	.	.	16CJ	.	16e	.	.	.	.	.
4BB	16BBL	16BBL	.	16D	.	(<16BL	A	(<16gL	A	8G	.	8d	8BB	4r	.	8b	A-	16BBL	.	16d	.	4f	men,	8dd	8gg
.	16C	16C	.	16E	.	16A	.	16f	.	.	.	.	.	.	.	.	.	16C	.	16e	.	.	.	.	.
.	16D	16D	.	16F	.	16B	.	16g	.	8GJ	.	8dJ	8BBJ	.	.	8b	men,	16D	.	16f	.	.	.	8ddJ	8ggJ
.	16BBJ	16BBJ	.	16DJ	.	16AJ	.	16fJ	.	.	.	.	.	.	.	.	.	16BBJ	.	16dJ	.	.	.	.	.
=107	=107	=107	=107	=107	=107	=107	=107	=107	=107	=107	=107	=107	=107	=107	=107	=107	=107	=107	=107	=107	=107	=107	=107	=107	=107
4C	8CL	8C)	.	4.E	.	8GL	.	8e)	.	8GL	.	8gL	8CL	(>16ccL	A	8ee	A-	8C)	.	16eL	.	4e	A-	4r	8ggL
.	.	.	.	.	.	.	.	.	.	.	.	.	.	16dd	.	.	.	.	.	16d	.	.	.	.	.
.	8CJ	8C	men,	.	.	16A	.	8e	men,	8GJ	.	8gJ	8CJ	16cc	.	8ee	men,	8C	men,	16e	.	.	.	.	8gg
.	.	.	.	.	.	16BJ	.	.	.	.	.	.	.	16ddJ	.	.	.	.	.	16d	.	.	.	.	.
4AA	4r	8AA	a-	.	.	8c)	.	(>8aL	A	4r	.	4r	4r	16eeL	.	4r	.	8AA	A-	16c	.	4e	men,	4ee	8aa
.	.	.	.	.	.	.	.	.	.	.	.	.	.	16dd	.	.	.	.	.	16d	.	.	.	.	.
.	.	8AA	men,	8E	men,	8e	men,	16b	.	.	.	.	.	16cc	.	.	.	8AA	men,	16e	.	.	.	.	8aaJ
.	.	.	.	.	.	.	.	16ccJ	.	.	.	.	.	16eeJ	.	.	.	.	.	16cJ	.	.	.	.	.
2E	4r	8E	A-	4E	A-	2e	A-	8b)	.	4r	.	4r	4r	4b)	.	4ee	A-	8E	A-	8B)	.	2e	A-	4ee	4aa
.	.	8E	men,	.	.	.	.	8b	men,	.	.	.	.	.	.	.	.	8E	men,	8B	men,	.	.	.	.
.	8EEL	8E	A-	4E	men,	.	.	4r	.	8BL	.	8eL	8EEL	4b	men,	4ee	men,	4r	.	8e	A-	.	.	4ee	4gg#
.	8EEJ	8E	men,	.	.	.	.	.	.	8BJ	.	8eJ	8EEJ	.	.	.	.	.	.	8e	men,	.	.	.	.
!!LO:LB
=108	=108	=108	=108	=108	=108	=108	=108	=108	=108	=108	=108	=108	=108	=108	=108	=108	=108	=108	=108	=108	=108	=108	=108	=108	=108
4A	8AAL	8A	A-	(>16cL	A	2e	men,	(>16eeL	A	8AL	.	8eL	8AAL	(>16ccL	A	(>16eeL	A	8AA	A-	4c	A-	2e	men,	4ee	2aa
.	.	.	.	16B	.	.	.	16dd	.	.	.	.	.	16b	.	16dd	.	.	.	.	.	.	.	.	.
.	8AA	8A	men,	16c	.	.	.	16ee	.	8A	.	8e	8AA	16cc	.	16ee	.	8AA	men,	.	.	.	.	.	.
.	.	.	.	16BJ	.	.	.	16ddJ	.	.	.	.	.	16bJ	.	16ddJ	.	.	.	.	.	.	.	.	.
4AA	8AA	8A	A-	16AL	.	.	.	16ccL	.	8A	.	8e	8AA	16aL	.	16ccL	.	8A	A-	4c	men,	.	.	8eeL	.
.	.	.	.	16B	.	.	.	16dd	.	.	.	.	.	16b	.	16dd	.	.	.	.	.	.	.	.	.
.	8AAJ	8A	men,	16c	.	.	.	16ee	.	8AJ	.	8eJ	8AAJ	16cc	.	16ee	.	8A	men,	.	.	.	.	8eeJ	.
.	.	.	.	16AJ	.	.	.	16ccJ	.	.	.	.	.	16aJ	.	16ccJ	.	.	.	.	.	.	.	.	.
4D	8DL	8D	A-	16BL	.	4r	.	16ddL	.	4f	.	4r	8DL	16bL	.	16ddL	.	2r	.	2r	.	8B	a-	4bb	2r
.	.	.	.	16A	.	.	.	16cc	.	.	.	.	.	16a	.	16cc	.	.	.	.	.	.	.	.	.
.	8D	8D	men,	16B	.	.	.	16dd	.	.	.	.	8D	16b	.	16dd	.	.	.	.	.	8B	men,	.	.
.	.	.	.	16AJ	.	.	.	16ccJ	.	.	.	.	.	16aJ	.	16ccJ	.	.	.	.	.	.	.	.	.
4E	8E	8E	A-	8G#L	.	(>16eL	A	16bL	.	8BL	.	4e	8E	16g#L	.	16bL	.	.	.	.	.	8e	A-	4bb	.
.	.	.	.	.	.	16d	.	16cc	.	.	.	.	.	16a	.	16cc	.	.	.	.	.	.	.	.	.
.	8EJ	8E	men,	8GJ	.	16e	.	16dd	.	8eJ	.	.	8EJ	16b	.	16dd	.	.	.	.	.	8e	men,	.	.
.	.	.	.	.	.	16dJ	.	16bJ	.	.	.	.	.	16gJ	.	16bJ	.	.	.	.	.	.	.	.	.
=109	=109	=109	=109	=109	=109	=109	=109	=109	=109	=109	=109	=109	=109	=109	=109	=109	=109	=109	=109	=109	=109	=109	=109	=109	=109
4A	8AL	(>16AL	A	4A	.	8c)	.	16ccL	.	8cL	.	8eL	8AL	4a)	.	8cc)	.	(>16AL	A	16cL	A	4r	.	4r	4aa
.	.	16G	.	.	.	.	.	16b	.	.	.	.	.	.	.	.	.	16G	.	16B	.	.	.	.	.
.	8AJ	16A	.	.	.	8c	men,	16cc	.	8c	.	8e	8AJ	.	.	8a	men,	16A	.	16c	.	.	.	.	.
.	.	16GJ	.	.	.	.	.	16bJ	.	.	.	.	.	.	.	.	.	16GJ	.	16BJ	.	.	.	.	.
4F	4r	16FL	.	4A	men,	(>16dL	A	16aL	.	8f	.	8a	4r	4a	men,	(>16ddL	A	16FL	.	16AL	.	(>16fL	A	8aL	4aa
.	.	16G	.	.	.	16c	.	16b	.	.	.	.	.	.	.	16cc	.	16G	.	16B	.	16e	.	.	.
.	.	16A	.	.	.	16d	.	16cc	.	8f	.	8aJ	.	.	.	16dd	.	16A	.	16c	.	16f	.	8a	.
.	.	16FJ	.	.	.	16cJ	.	16aJ	.	.	.	.	.	.	.	16ccJ	.	16FJ	.	16A	.	16e	.	.	.
4G	16GL	16GL	.	2r	.	8B)	.	8b)	.	8B	.	8dL	8GL	2r	.	8b)	.	16GL	.	16B	.	8dJ)	.	8dd	4r
.	16F	16F	.	.	.	.	.	.	.	.	.	.	.	.	.	.	.	16F	.	16A	.	.	.	.	.
.	16G	16G	.	.	.	8B	men,	8b	men,	8B	.	8d	8G	.	.	8b	men,	16G	.	16B	.	8d	men,	8ddJ	.
.	16FJ	16FJ	.	.	.	.	.	.	.	.	.	.	.	.	.	.	.	16FJ	.	16AJ	.	.	.	.	.
4E	16EL	16EL	.	.	.	(>16eL	A	(>16ccL	A	8e	.	8g	8E	.	.	(>16ccL	A	16EL	.	16GL	.	(>16eL	A	4r	8eeL
.	16F	16F	.	.	.	16d	.	16b	.	.	.	.	.	.	.	16b	.	16F	.	16A	.	16d	.	.	.
.	16G	16G	.	.	.	16e	.	16cc	.	8eJ	.	8gJ	8EJ	.	.	16cc	.	16G	.	16B	.	16e	.	.	8eeJ
.	16EJ	16EJ	.	.	.	16dJ	.	16bJ	.	.	.	.	.	.	.	16bJ	.	16EJ	.	16GJ	.	16dJ	.	.	.
=110	=110	=110	=110	=110	=110	=110	=110	=110	=110	=110	=110	=110	=110	=110	=110	=110	=110	=110	=110	=110	=110	=110	=110	=110	=110
4F	16FL	16FL	.	(>16AL	A	8c)	.	8a)	.	8AL	.	8cL	8FL	(>16aL	A	8a)	.	16FL	.	8AL	.	16cL	.	4r	8aaL
.	16E	16E	.	16G	.	.	.	.	.	.	.	.	.	16g	.	.	.	16E	.	.	.	16d	.	.	.
.	16F	16F	.	16A	.	8c	men,	8a	men,	8AJ	.	8c	8F	16a	.	8a	men,	16F	.	8AJ	men,	16e	.	.	8aaJ
.	16EJ	16EJ	.	16GJ	.	.	.	.	.	.	.	.	.	16gJ	.	.	.	16EJ	.	.	.	16cJ	.	.	.
4D	16DL	16DL	.	16FL	.	(>16dL	A	(>16bL	A	8r	.	8f	8D	16fL	.	8b	A-	16DL	.	4r	.	8d)	.	16bbL	16dddL
.	16E	16E	.	16G	.	16c	.	16a	.	.	.	.	.	16g	.	.	.	16E	.	.	.	.	.	16aa	16ccc
.	16F	16F	.	16A	.	16d	.	16b	.	8dL	.	8f	8DJ	16a	.	8b	men,	16F	.	.	.	8d	men,	16bb	16ddd
.	16DJ	16DJ	.	16FJ	.	16cJ	.	16aJ	.	.	.	.	.	16fJ	.	.	.	16DJ	.	.	.	.	.	16aaJ	16cccJ
4E	16EL	16EL	.	16GL	.	8B)	.	8g)	.	8G	.	8B	8EL	16gL	.	2r	.	16EL	.	8BL	A-	2r	.	8ggL	8bbL
.	16D	16D	.	16F	.	.	.	.	.	.	.	.	.	16f	.	.	.	16D	.	.	.	.	.	.	.
.	16E	16E	.	16G	.	8B	men,	8g	men,	8G	.	8BJ	8E	16g	.	.	.	16E	.	8B	men,	.	.	8ggJ	8bbJ
.	16DJ	16DJ	.	16FJ	.	.	.	.	.	.	.	.	.	16fJ	.	.	.	16DJ	.	.	.	.	.	.	.
4C	16CL	16CL	.	16EL	.	8c	A-	8a	A-	8c	.	8r	8C	16eL	.	.	.	16CL	.	8e	A-	.	.	16aaL	16bbL
.	16D	16D	.	16F	.	.	.	.	.	.	.	.	.	16f	.	.	.	16D	.	.	.	.	.	16gg	16ccc
.	16E	16E	.	16G	.	8c	men,	8a	men,	8cJ	.	8e	8CJ	16g	.	.	.	16E	.	8eJ	men,	.	.	16aa	16bb
.	16CJ	16CJ)	.	16EJ)	.	.	.	.	.	.	.	.	.	16eJ)	.	.	.	16CJ)	.	.	.	.	.	16ggJ	16cccJ
!!LO:LB
=111	=111	=111	=111	=111	=111	=111	=111	=111	=111	=111	=111	=111	=111	=111	=111	=111	=111	=111	=111	=111	=111	=111	=111	=111	=111
4D	8DL	(>8D	 -	1A	 -	4.f	A-	4.a	A-	8FL	.	8fL	8DL	4.a	 -	(<16aL	A	4D	.	4.A	a-	(<16fL	A	16ffL	4.aa
.	.	.	.	.	.	.	.	.	.	.	.	.	.	.	.	16g	.	.	.	.	.	16e	.	16gg	.
.	8DJ	8D)	men,	.	.	.	.	.	.	8F	.	8f	8D	.	.	16a	.	.	.	.	.	16f	.	16ff	.
.	.	.	.	.	.	.	.	.	.	.	.	.	.	.	.	16gJ	.	.	.	.	.	16eJ	.	16ggJ	.
4F	8FFL	8F	A-	.	.	.	.	.	.	8F	.	8f	8FF	.	.	16fL	.	4F	men,	.	.	16dL	.	8aaL	.
.	.	.	.	.	.	.	.	.	.	.	.	.	.	.	.	16a	.	.	.	.	.	16f	.	.	.
.	8FFJ	8F	men,	.	.	8f	men,	8dd	men,	8AJ	.	8fJ	8FFJ	8a	men,	16g	.	.	.	8A	men,	16e	.	8ddJ	8aa
.	.	.	.	.	.	.	.	.	.	.	.	.	.	.	.	16fJ	.	.	.	.	.	16dJ	.	.	.
2A	4AA	4A	A-	.	.	2e	A-	4dd	A-	4A	.	8c#L	4AA	4a	A-	4e)	.	8A	A-	4A	A-	8e)	.	4dd	4aa
.	.	.	.	.	.	.	.	.	.	.	.	8d	.	.	.	.	.	8A	men,	.	.	8e	men,	.	.
.	4AA	4A	men,	.	.	.	.	4cc#	men,	4A	.	8e	4AA	4a	men,	4e	men,	8AA	A-	4A	men,	4r	.	4cc#	4aa
.	.	.	.	.	.	.	.	.	.	.	.	8eJ	.	.	.	.	.	8AA	men,	.	.	.	.	.	.
=112	=112	=112	=112	=112	=112	=112	=112	=112	=112	=112	=112	=112	=112	=112	=112	=112	=112	=112	=112	=112	=112	=112	=112	=112	=112
*^	*	*	*	*	*	*	*	*	*	*	*	*	*	*	*	*	*	*	*	*	*	*	*	*	*
*	*^	*	*	*	*	*	*	*	*	*	*	*	*	*	*	*	*	*	*	*	*	*	*	*	*	*
2D	2a	2f	4DD	4r	.	2A	men,	2d	men,	4r	.	8AL	.	4d	4DD	8a	A-	2r	.	8D	A-	(>16fL	A	(<16aL	A	2dd	2aa
.	.	.	.	.	.	.	.	.	.	.	.	.	.	.	.	.	.	.	.	.	.	16e	.	16g	.	.	.
.	.	.	.	.	.	.	.	.	.	.	.	8A	.	.	.	8a	men,	.	.	8D	men,	16f	.	16a	.	.	.
.	.	.	.	.	.	.	.	.	.	.	.	.	.	.	.	.	.	.	.	.	.	16eJ	.	16gJ	.	.	.
.	.	.	8DDL	8D	A-	.	.	.	.	2dd	A-	8A	.	8dL	8DDL	8dd	A-	.	.	8D	A-	16dL	.	16fL	.	.	.
.	.	.	.	.	.	.	.	.	.	.	.	.	.	.	.	.	.	.	.	.	.	16e	.	16g	.	.	.
.	.	.	8DDJ	8D	men,	.	.	.	.	.	.	8DJ	.	8dJ	8DDJ	8dd	men,	.	.	8D	men,	16f	.	16a	.	.	.
.	.	.	.	.	.	.	.	.	.	.	.	.	.	.	.	.	.	.	.	.	.	16dJ	.	16fJ	.	.	.
4GG	4b	4e	8GGL	8G	A-	2e	A-	4r	.	.	.	8r	.	8BL	8GGL	2r	.	4ee	A-	8G	A-	16eL	.	16gL	.	8bL	4r
.	.	.	.	.	.	.	.	.	.	.	.	.	.	.	.	.	.	.	.	.	.	16d	.	16f	.	.	.
.	.	.	8GG	8G	men,	.	.	.	.	.	.	8GL	.	8e	8GG	.	.	.	.	8G	men,	16e	.	16g	.	8b	.
.	.	.	.	.	.	.	.	.	.	.	.	.	.	.	.	.	.	.	.	.	.	16dJ	.	16fJ	.	.	.
4AA	4a	4e	8AA	8A	A-	.	.	8a	A-	4cc#	men,	8C#	.	8e	8AA	.	.	4ee	men,	4r	.	16c#L	.	16eL	.	8ee	8aaL
.	.	.	.	.	.	.	.	.	.	.	.	.	.	.	.	.	.	.	.	.	.	16d	.	16f	.	.	.
.	.	.	8AAJ	8A	men,	.	.	8a	men,	.	.	8CJ	.	8AJ	8AAJ	.	.	.	.	.	.	16e	.	16g	.	8eeJ	8aaJ
.	.	.	.	.	.	.	.	.	.	.	.	.	.	.	.	.	.	.	.	.	.	16cJ	.	16eJ	.	.	.
*v	*v	*v	*	*	*	*	*	*	*	*	*	*	*	*	*	*	*	*	*	*	*	*	*	*	*	*	*
=113	=113	=113	=113	=113	=113	=113	=113	=113	=113	=113	=113	=113	=113	=113	=113	=113	=113	=113	=113	=113	=113	=113	=113	=113	=113
4D	8DL	8d	A-	4d	men,	8f	A-	8dd	A-	8FL	.	8AL	8DL	4r	.	4r	.	(>16dL	A	8d)	.	16fL	.	8ddL	8ffL
.	.	.	.	.	.	.	.	.	.	.	.	.	.	.	.	.	.	16c	.	.	.	16e	.	.	.
.	8DJ	8d	men,	.	.	8f	men,	8dd	men,	8FJ	.	8AJ	8DJ	.	.	.	.	16d	.	8d	men,	16f	.	8dd	8ffJ
.	.	.	.	.	.	.	.	.	.	.	.	.	.	.	.	.	.	16cJ	.	.	.	16eJ	.	.	.
4B-	4r	4r	.	4r	.	4r	.	4r	.	4r	.	4r	4r	(<16gL	A	(<16b-L	A	16B-L	.	4r	.	16dL	.	8gg	4r
.	.	.	.	.	.	.	.	.	.	.	.	.	.	16f	.	16a	.	16c	.	.	.	16e	.	.	.
.	.	.	.	.	.	.	.	.	.	.	.	.	.	16g	.	16b	.	16d	.	.	.	16f	.	8ggJ	.
.	.	.	.	.	.	.	.	.	.	.	.	.	.	16fJ	.	16aJ	.	16BJ	.	.	.	16dJ	.	.	.
4c	2r	(>16cL	A	(>16eL	A	4r	.	4r	.	2r	.	2r	2r	8e)	.	8g)	.	16cL	.	(>16eL	A	8e)	.	8r	8ggL
.	.	16B-	.	16d	.	.	.	.	.	.	.	.	.	.	.	.	.	16B	.	16d	.	.	.	.	.
.	.	16c	.	16e	.	.	.	.	.	.	.	.	.	8e	men,	8g	men, 	16c	.	16e	.	8e	men,	8eeL	8gg
.	.	16BJ	.	16dJ	.	.	.	.	.	.	.	.	.	.	.	.	.	16BJ	.	16dJ	.	.	.	.	.
4A	.	16AL	.	16cL	.	(<16aL	A	(>16ffL	A	.	.	.	.	(<16fL	A	(<16aL	A	16AL	.	16cnL	.	4r	.	8aa	8ccc
.	.	16B	.	16d	.	16g	.	16ee	.	.	.	.	.	16e	.	16g	.	16B	.	16d	.	.	.	.	.
.	.	16c	.	16e	.	16a	.	16ff	.	.	.	.	.	16f	.	16a	.	16c	.	16e	.	.	.	8aaJ	8cccJ
.	.	16AJ)	.	16cJ)	.	16gJ)	.	16eeJ)	.	.	.	.	.	16eJ)	.	16gJ)	.	16BJ)	.	16cJ)	.	.	.	.	.
!!LO:LB
=114	=114	=114	=114	=114	=114	=114	=114	=114	=114	=114	=114	=114	=114	=114	=114	=114	=114	=114	=114	=114	=114	=114	=114	=114	=114
4BB-	16BB-L	(>16B-L	.	(>16dL	.	(<8f	 -	(>8dd	 -	2r	.	2r	2r	8d	 -	(<8f	 -	(>16B-L	.	(>16dL	.	8d	A-	4r	4r
.	16AA	16A	.	16c	.	.	.	.	.	.	.	.	.	.	.	.	.	16A	.	16c	.	.	.	.	.
.	16BB	16B	.	16d	.	8f)	men,	8dd)	men,	.	.	.	.	8d	men,	8f)	men,	16B	.	16d	.	8d	men,	.	.
.	16AAJ	16AJ	.	16cJ	.	.	.	.	.	.	.	.	.	.	.	.	.	16AJ	.	16cJ	.	.	.	.	.
4GG	16GGL	16GL	.	16B-L	.	(<16gL	A	16eeL	A	.	.	.	.	8e	A-	8g	A-	16GL	.	16B-L	.	8g	A-	16eeL	16ggL
.	16AA	16A	.	16c	.	16f	.	16dd	.	.	.	.	.	.	.	.	.	16A	.	16c	.	.	.	16dd	16ff
.	16BB	16B	.	16d	.	16g	.	16ee	.	.	.	.	.	8e	men,	8g	men,	16B	.	16d	.	8g	men,	16ee	16gg
.	16GGJ	16GJ	.	16BJ	.	16fJ	.	16ddJ	.	.	.	.	.	.	.	.	.	16GJ	.	16BJ	.	.	.	16ddJ	16ffJ
4AA	16AAL	16AL	.	8c)	.	16eL	.	8cc	.	8AL	.	8cL	8AAL	8a	A-	(>16ccL	A	16AL	.	8c)	.	2r	.	8ccL	8eeL
.	16GG	16G	.	.	.	16f	.	.	.	.	.	.	.	.	.	16b-	.	16G	.	.	.	.	.	.	.
.	16AA	16A	.	8c	men,	16g	.	8cc	men,	8A	.	8c	8AA	8a	men,	16cc	.	16A	.	8c	men,	.	.	8ccJ	8eeJ
.	16GGJ	16GJ	.	.	.	16eJ	.	.	.	.	.	.	.	.	.	16bJ	.	16GJ	.	.	.	.	.	.	.
4FF	16FFL	16FL	.	4r	.	16fL	.	(>16ddL	A	8d	.	8f	8FF	4r	.	16aL	.	16FL	.	4r	.	.	.	16ddL	16ffL
.	16GG	16G	.	.	.	16e	.	16cc	.	.	.	.	.	.	.	16b	.	16G	.	.	.	.	.	16cc	16ee
.	16AA	16A	.	.	.	16f	.	16dd	.	8dJ	.	8fJ	8FFJ	.	.	16cc	.	16A	.	.	.	.	.	16dd	16ff
.	16FFJ	16FJ	.	.	.	16eJ	.	16ccJ	.	.	.	.	.	.	.	16aJ	.	16FJ	.	.	.	.	.	16ccJ	16eeJ
=115	=115	=115	=115	=115	=115	=115	=115	=115	=115	=115	=115	=115	=115	=115	=115	=115	=115	=115	=115	=115	=115	=115	=115	=115	=115
2GG	8GGL	8G)	.	(>16dL	A	2.d)	.	4.b-)	.	4.d	.	4.B-	4.GG	(>16ddL	A	16b-L	.	4G)	.	4.d	A-	4g	A-	16b-L	8ddL
.	.	.	.	16c	.	.	.	.	.	.	.	.	.	16cc	.	16a	.	.	.	.	.	.	.	16cc	.
.	8GG	8G	men,	16d	.	.	.	.	.	.	.	.	.	16dd	.	16b	.	.	.	.	.	.	.	16b	8ddJ
.	.	.	.	16cJ	.	.	.	.	.	.	.	.	.	16ccJ	.	16aJ	.	.	.	.	.	.	.	16ccJ	.
.	8GG	8GG	A-	16B-L	.	.	.	.	.	.	.	.	.	16b-L	.	16gL	.	4GG	men,	.	.	4g	men,	8ddL	4r
.	.	.	.	16c	.	.	.	.	.	.	.	.	.	16cc	.	16a	.	.	.	.	.	.	.	.	.
.	8GGJ	8GG	men,	16d	.	.	.	8g	men,	8d	.	8B	8GG	16dd	.	16b	.	.	.	8d	men,	.	.	8ddJ	.
.	.	.	.	16BJ	.	.	.	.	.	.	.	.	.	16bJ	.	16gJ	.	.	.	.	.	.	.	.	.
2D	4DD	4D	A-	16cL	.	.	.	8a	A-	4d	.	4A	4DD	8cc)	.	8a)	.	4r	.	8d	A-	4r	.	4dd	16aaL
.	.	.	.	16B	.	.	.	.	.	.	.	.	.	.	.	.	.	.	.	.	.	.	.	.	16gg
.	.	.	.	16c	.	.	.	8a	men,	.	.	.	.	8a	men,	8a	men,	.	.	8d	men,	.	.	.	16aa
.	.	.	.	16BJ	.	.	.	.	.	.	.	.	.	.	.	.	.	.	.	.	.	.	.	.	16ggJ
.	4DD	4D	men,	16AL	.	4d	men,	4r	.	4d	.	4A	4DD	4r	.	4r	.	8D	A-	4r	.	(<16dL	A	4dd	8ggL
.	.	.	.	16B	.	.	.	.	.	.	.	.	.	.	.	.	.	.	.	.	.	16c	.	.	.
.	.	.	.	16c	.	.	.	.	.	.	.	.	.	.	.	.	.	8D	men,	.	.	16d	.	.	8ff#J
.	.	.	.	16AJ	.	.	.	.	.	.	.	.	.	.	.	.	.	.	.	.	.	16cJ	.	.	.
=116	=116	=116	=116	=116	=116	=116	=116	=116	=116	=116	=116	=116	=116	=116	=116	=116	=116	=116	=116	=116	=116	=116	=116	=116	=116
2GG	4r	4r	.	16B-L	.	4r	.	(>16ddL	A	4r	.	4r	4r	(<16b-L	A	(>16ddL	A	8G	A-	8G	A-	16B-L	.	2dd	8ggL
.	.	.	.	16A	.	.	.	16cc	.	.	.	.	.	16a	.	16cc	.	.	.	.	.	16c	.	.	.
.	.	.	.	16B	.	.	.	16dd	.	.	.	.	.	16b	.	16dd	.	8G	men,	8G	men,	16B	.	.	8ggJ
.	.	.	.	16AJ	.	.	.	16ccJ	.	.	.	.	.	16aJ	.	16ccJ	.	.	.	.	.	16cJ	.	.	.
.	8GGL	8GG	A-	16GL	.	2g	A-	16b-L	.	8dL	.	8gL	8GGL	16gL	.	16b-L	.	4r	.	8B-	A-	8d)	.	.	4gg
.	.	.	.	16A	.	.	.	16cc	.	.	.	.	.	16a	.	16cc	.	.	.	.	.	.	.	.	.
.	8GGJ	8GG	men,	16B	.	.	.	16dd	.	8dJ	.	8dJ	8GGJ	16b	.	16dd	.	.	.	8B	men,	8d	men,	.	.
.	.	.	.	16GJ	.	.	.	16bJ	.	.	.	.	.	16gJ	.	16bJ	.	.	.	.	.	.	.	.	.
4C	4CC	4C	A-	4A)	.	.	.	16ccL	.	4c	.	4a	4CC	16aL	.	16ccL	.	4r	.	(<16AL	A	2r	.	2r	4ee
.	.	.	.	.	.	.	.	16b	.	.	.	.	.	16g	.	16b	.	.	.	16B	.	.	.	.	.
.	.	.	.	.	.	.	.	16cc	.	.	.	.	.	16a	.	16cc	.	.	.	16A	.	.	.	.	.
.	.	.	.	.	.	.	.	16bJ	.	.	.	.	.	16gJ	.	16bJ	.	.	.	16BJ	.	.	.	.	.
4D	4DD	4D	men,	4A	men,	4f#	men,	16aL	.	8r	.	8aL	4DD	8g)	.	16aL	.	(<16DL	A	8c)	.	.	.	.	8aaL
.	.	.	.	.	.	.	.	16b	.	.	.	.	.	.	.	16b	.	16C	.	.	.	.	.	.	.
.	.	.	.	.	.	.	.	16cc	.	8F#	.	8dJ	.	8f#	men,	16cc	.	16D	.	8A	men,	.	.	.	8dddJ
.	.	.	.	.	.	.	.	16aJ)	.	.	.	.	.	.	.	16aJ)	.	16CJ)	.	.	.	.	.	.	.
!!LO:LB
=117	=117	=117	=117	=117	=117	=117	=117	=117	=117	=117	=117	=117	=117	=117	=117	=117	=117	=117	=117	=117	=117	=117	=117	=117	=117
2GG	2GG	2GG	A-	4G	A-	2g	A-	(>16b-L	.	4B-	.	4d	4GG	4g	A-	(>4b-	 -	(<8BB-	 -	(<16GL	A	(<16B-L	.	16bb-L	16dddL
.	.	.	.	.	.	.	.	16a	.	.	.	.	.	.	.	.	.	.	.	16A	.	16c	.	16aa	16ccc
.	.	.	.	.	.	.	.	16b	.	.	.	.	.	.	.	.	.	8GG)	men,	16G	.	16B	.	16bb	16ddd
.	.	.	.	.	.	.	.	16aJ	.	.	.	.	.	.	.	.	.	.	.	16AJ	.	16cJ	.	16aaJ	16cccJ
.	.	.	.	4D	men,	.	.	16gL	.	4B	.	4d	4GG	4g	men,	4b)	men,	4r	.	8B-)	.	8d)	.	16ggL	16bb-L
.	.	.	.	.	.	.	.	16a	.	.	.	.	.	.	.	.	.	.	.	.	.	.	.	16aa	16ccc
.	.	.	.	.	.	.	.	16b	.	.	.	.	.	.	.	.	.	.	.	8G	men,	8d	men,	16bb	16ddd
.	.	.	.	.	.	.	.	16gJ	.	.	.	.	.	.	.	.	.	.	.	.	.	.	.	16ggJ	16bbJ
2FF#	2FF#	2FF#	men,	4D	A-	2d	men,	4a)	.	2A	.	4d	2FF#	4r	.	2r	.	4r	.	4D	A-	8d	A-	16aaL	16cccL
.	.	.	.	.	.	.	.	.	.	.	.	.	.	.	.	.	.	.	.	.	.	.	.	16gg	16bb
.	.	.	.	.	.	.	.	.	.	.	.	.	.	.	.	.	.	.	.	.	.	8d	men,	16aa	16ccc
.	.	.	.	.	.	.	.	.	.	.	.	.	.	.	.	.	.	.	.	.	.	.	.	16ggJ	16bbJ
.	.	.	.	4D	men,	.	.	4a	men,	.	.	4d	.	(>16ddL	A	.	.	8FF#	A-	4D	men,	4r	.	8ff#L	16aaL
.	.	.	.	.	.	.	.	.	.	.	.	.	.	16cc	.	.	.	.	.	.	.	.	.	.	16bb
.	.	.	.	.	.	.	.	.	.	.	.	.	.	16dd	.	.	.	8FF	men,	.	.	.	.	16gg	16ccc
.	.	.	.	.	.	.	.	.	.	.	.	.	.	16ccJ	.	.	.	.	.	.	.	.	.	16aaJ	16aaJ
=118	=118	=118	=118	=118	=118	=118	=118	=118	=118	=118	=118	=118	=118	=118	=118	=118	=118	=118	=118	=118	=118	=118	=118	=118	=118
1GG	1GG	1GG	A-	4r	.	4r	.	4r	.	4r	.	4r	2GG	16b-L	.	(>16ddL	A	4GG	A-	(<16GL	A	(<16B-L	A	4dd	4bb-
.	.	.	.	.	.	.	.	.	.	.	.	.	.	16a	.	16cc	.	.	.	16A	.	16c	.	.	.
.	.	.	.	.	.	.	.	.	.	.	.	.	.	16b	.	16dd	.	.	.	16G	.	16B	.	.	.
.	.	.	.	.	.	.	.	.	.	.	.	.	.	16aJ	.	16ccJ	.	.	.	16AJ	.	16cJ	.	.	.
.	.	.	.	(<16GL	A	(<4.d	A	(>16b-L	A	16B-L	.	16dL	.	8g)	.	8b-)	.	4GG	men,	8B-)	.	8d)	.	4dd	4bb
.	.	.	.	16A	.	.	.	16cc	.	16A	.	16c	.	.	.	.	.	.	.	.	.	.	.	.	.
.	.	.	.	16G	.	.	.	16b	.	16B	.	16d	.	8g	men,	8b	men,	.	.	8B	men,	8d	men,	.	.
.	.	.	.	16AJ	.	.	.	16ccJ	.	16AJ	.	16cJ	.	.	.	.	.	.	.	.	.	.	.	.	.
.	.	.	.	8B-)	.	.	.	8dd)	.	8GL	.	8B-L	2GG	(>16gL	A	(>16bL	A	4r	.	4r	.	2d	A-	16bb-L	16dddL
.	.	.	.	.	.	.	.	.	.	.	.	.	.	16a	.	16cc	.	.	.	.	.	.	.	16aa	16ccc
.	.	.	.	8B	men,	16eL	.	8dd	men,	8G	.	8B	.	16g	.	16b	.	.	.	.	.	.	.	16bb	16ddd
.	.	.	.	.	.	16fJ	.	.	.	.	.	.	.	16aJ	.	16ccJ	.	.	.	.	.	.	.	16aaJ	16cccJ
.	.	.	.	4B	A-	4g)	.	4dd	A-	8G	.	8B	.	4b)	.	4dd)	.	4G	A-	4G	A-	.	.	8ggL	8bbL
.	.	.	.	.	.	.	.	.	.	8DJ	.	8BJ	.	.	.	.	.	.	.	.	.	.	.	8ggJ	8dddJ
=119	=119	=119	=119	=119	=119	=119	=119	=119	=119	=119	=119	=119	=119	=119	=119	=119	=119	=119	=119	=119	=119	=119	=119	=119	=119
*^	*	*	*	*	*	*	*	*	*	*	*	*	*	*	*	*	*	*	*	*	*	*	*	*	*
*	*^	*	*	*	*	*	*	*	*	*	*	*	*	*	*	*	*	*	*	*	*	*	*	*	*	*
1D;	1f#	1d	1DD;	1D;	men.	1A;	men.	1f#;	men.	1dd;	men.	1D;	.	1d;	1DD;	1a;	men.	1dd;	men.	1D;	men.	1F#;	men.	1d;	men.	1aa;	1ddd;
*v	*v	*v	*	*	*	*	*	*	*	*	*	*	*	*	*	*	*	*	*	*	*	*	*	*	*	*	*
==	==	==	==	==	==	==	==	==	==	==	==	==	==	==	==	==	==	==	==	==	==	==	==	==	==
*-	*-	*-	*-	*-	*-	*-	*-	*-	*-	*-	*-	*-	*-	*-	*-	*-	*-	*-	*-	*-	*-	*-	*-	*-	*-
!!!RDF**kern: > = above
!!!RDF**kern: < = below
